!!!!SEGMENT: s-uu--vok-mus-i-hs-22-11_forster-kaspar--o-plausus-orantes-jungamus.krn
!!!cenid: 16xx:1694
!!!COM: Förster, Kaspar
!!!COM-rismID: pe30006147
!!!CDT: ~1616-1673/02/02
!!!CNT: German
!!!OTL: O plausus orantes jungamus
!!!PDT: 1670
!!!AGN:
!!!YEC: Copyright 2022 Narodowy Instytut Fryderyka Chopina (https://polishscores.org)
!!!YEM: License CC-BY-4.0 (https://creativecommons.org/licenses/by/4.0)
!!!SMS-siglum: S-Uu
!!!SMS-shelfmark: Vok. mus. i hs. 22:11
!!!SMS-shelfwork: W
!!!SMS-variant: [ex 1]: S-Uu Vok. mus. i hs. 22:11, Organo. [=bc] [ex 1]: S-Uu Vok. mus. i hs. 22:11
!!!SMS-altvar: [ex 2]: S-Uu Vok. mus. i hs. 22:11, Violono. [=bc] [ex 1]: S-Uu Vok. mus. i hs. 22:11
!!!NIFC-rismSourceID: 190008730
!!!NIFC-rismChildID: 190008730
!!!NIFC-islandoraID: none
!!!URL-pdf-islandora:
!!!URL-scan: https://www2.musik.uu.se/duben/presentationSource1.php?Select_Dnr=846 @EN{Scan on Academica} @PL{Skany w zewnętrznej bibliotece cyfrowej}
!!!IIIF:
!!!ONB-nifc: UWAGA: poszczególne partie dostępne po kliknięciu w „browse part”. Informacje nt stron tytułowych w opisie na stronie lub na RISM.
!!!AIN: 1 alto 1 bass 1 organ 1 tenor 2 violn
!!!key: C
**kern	**fba	**kern	**dynam	**kern	**dynam	**kern	**text	**mod-text	**kern	**text	**mod-text	**kern	**text	**mod-text	**dynam
*	*	*group2	*	*group2	*	*group1	*	*	*group1	*	*	*group1	*	*	*
*part6	*	*part5	*	*part4	*	*part3	*	*	*part2	*	*	*part1	*	*	*
*staff6	*	*staff5	*	*staff4	*	*staff3	*	*	*staff2	*	*	*staff1	*	*	*
*I"Organo.	*	*I"Violino 2:do	*	*I"Violino 1.	*	*I"Basso.	*	*	*I"Tenor.	*	*	*I"Alto.	*	*	*
*mI"Organo	*	*mI"Violino II	*	*mI"Violino I	*	*mI"Basso	*	*	*mI"Tenore	*	*	*mI"Alto	*	*	*
*I'org	*	*I'vl 2	*	*I'vl 1	*	*I'B	*	*	*I'T	*	*	*I'A	*	*	*
*IGcont	*	*IGacmp	*	*IGacmp	*	*IGcoro	*	*	*IGcoro	*	*	*IGcoro	*	*	*
*ICklav	*	*ICstr	*	*ICstr	*	*ICvox	*	*	*ICvox	*	*	*ICvox	*	*	*
*Iorgan	*	*Ivioln	*	*Ivioln	*	*Ibass	*	*	*Itenor	*	*	*Ialto	*	*	*
*clefF4	*	*clefG2	*	*clefG2	*	*clefF4	*	*	*clefC4	*	*	*clefC3	*	*	*
*mclefF4	*	*mclefG2	*	*mclefG2	*	*mclefF4	*	*	*mclefGv2	*	*	*mclefG2	*	*	*
*C:	*	*C:	*	*C:	*	*C:	*	*	*C:	*	*	*C:	*	*	*
*k[]	*	*k[]	*	*k[]	*	*k[]	*	*	*k[]	*	*	*k[]	*	*	*
*M3/1	*	*M3/1	*	*M3/1	*	*M3/1	*	*	*M3/1	*	*	*M3/1	*	*	*
*	*	*met(3/2)	*	*met(3/2)	*	*met(C 3/2)	*	*	*met(C 3/2)	*	*	*met(C 3/2)	*	*	*
=1-	=1-	=1-	=1-	=1-	=1-	=1-	=1-	=1-	=1-	=1-	=1-	=1-	=1-	=1-	=1-
!!LO:TX:a:B:t=:mod=Sinfonia
!LO:TX:t=P:problem:all\left or right	!	!LO:TX:t=P:problem:all\left or right	!	!LO:TX:t=P:problem:all\left or right	!	!LO:TX:t=P:problem:all\left or right	!	!	!LO:TX:t=P:problem:all\left or right	!	!	!LO:TX:t=P:problem:all\left or right	!	!	!
!LO:TX:b:i:t=Sinfonia:mod=	!	!	!	!	!	!	!	!	!	!	!	!	!	!	!
1.C	.	2.ee\	.	2.gg\	.	00.r	.	.	00.r	.	.	00.r	.	.	.
.	.	4ee\	.	4gg\	.	.	.	.	.	.	.	.	.	.	.
.	.	2ee\	.	2gg\	.	.	.	.	.	.	.	.	.	.	.
2C/	.	2ee\	.	2gg\	.	.	.	.	.	.	.	.	.	.	.
2F\	7 3	2ff\	.	2aa\	.	.	.	.	.	.	.	.	.	.	.
!	!	!LO:TX:b:t=P:problem:# below	!	!	!	!	!	!	!	!	!	!	!	!	!
!LO:TX:t=P:problem:kreska pseudotaktowa	!	!LO:N:acc=#	!	!LO:TX:t=P:problem:kreska pseudotaktowa	!	!	!	!	!	!	!	!	!	!	!
2G\	#	2bnX/	.	2ff\	.	.	.	.	.	.	.	.	.	.	.
=2-	=2-	=2-	=2-	=2-	=2-	=2-	=2-	=2-	=2-	=2-	=2-	=2-	=2-	=2-	=2-
1.C	.	2.cc\	.	2.ee\	.	.	.	.	.	.	.	.	.	.	.
.	.	4cc\	.	4ee\	.	.	.	.	.	.	.	.	.	.	.
!	!	!LO:TX:t=P:problem:kreska pseudotaktowa	!	!	!	!	!	!	!	!	!	!	!	!	!
!	!	!LO:SIC:s=2cc,\	!	!	!	!	!	!	!	!	!	!	!	!	!
.	.	2cc\	.	2ee,<\	.	.	.	.	.	.	.	.	.	.	.
2G\	.	2b/	.	2dd\	.	.	.	.	.	.	.	.	.	.	.
2C/	.	2cc\	.	2ee\	.	.	.	.	.	.	.	.	.	.	.
!LO:TX:t=P:problem:kreska pseudotaktowa	!	!	!	!	!	!	!	!	!	!	!	!	!	!	!
2D/	7 #	2f#X,</	.	2cc,<\	.	.	.	.	.	.	.	.	.	.	.
=3-	=3-	=3-	=3-	=3-	=3-	=3-	=3-	=3-	=3-	=3-	=3-	=3-	=3-	=3-	=3-
1.GG	.	2.g/	.	2.b/	.	00.r	.	.	00.r	.	.	00.r	.	.	.
.	.	4g/	.	4b/	.	.	.	.	.	.	.	.	.	.	.
.	.	2g,</	.	2b,</	.	.	.	.	.	.	.	.	.	.	.
2GG/	6	2ee\	.	2gg\	.	.	.	.	.	.	.	.	.	.	.
2AA/	6 -5	2ee\	.	2.ff\	.	.	.	.	.	.	.	.	.	.	.
!LO:TX:t=P:problem:kreska pseudotaktowa	!	!	!	!	!	!	!	!	!	!	!	!	!	!	!
2BB/	-5	2dd,<\	.	.	.	.	.	.	.	.	.	.	.	.	.
.	.	.	.	4ff,<\	.	.	.	.	.	.	.	.	.	.	.
=4-	=4-	=4-	=4-	=4-	=4-	=4-	=4-	=4-	=4-	=4-	=4-	=4-	=4-	=4-	=4-
1.C	.	2.dd\	.	2.ee\	.	.	.	.	.	.	.	.	.	.	.
.	.	4cc\	.	4ee\	.	.	.	.	.	.	.	.	.	.	.
.	.	2cc,<\	.	2ee,<\	.	.	.	.	.	.	.	.	.	.	.
2C/	6	2a/	.	2cc\	.	.	.	.	.	.	.	.	.	.	.
2D/	6 5	2a/	.	2.b-X/	.	.	.	.	.	.	.	.	.	.	.
2E\	-5r	2g,</	.	.	.	.	.	.	.	.	.	.	.	.	.
.	.	.	.	4b-,</	.	.	.	.	.	.	.	.	.	.	.
=5-	=5-	=5-	=5-	=5-	=5-	=5-	=5-	=5-	=5-	=5-	=5-	=5-	=5-	=5-	=5-
1F	.	1f	.	2.a/	.	00.r	.	.	00.r	.	.	00.r	.	.	.
.	.	.	.	4b/	.	.	.	.	.	.	.	.	.	.	.
!LO:TX:t=P:problem:kreska pseudotaktowa	!	!	!	!	!	!	!	!	!	!	!	!	!	!	!
2E\	.	2g,</	.	2cc,<\	.	.	.	.	.	.	.	.	.	.	.
2BB/	.	2g/	.	2dd\	.	.	.	.	.	.	.	.	.	.	.
2C/	.	2.g/	.	2.a/	.	.	.	.	.	.	.	.	.	.	.
2D/	.	.	.	.	.	.	.	.	.	.	.	.	.	.	.
!	!	!LO:TX:b:t=P:problem:# below	!	!	!	!	!	!	!	!	!	!	!	!	!
!	!	!LO:SIC:s=4f#X,/	!	!	!	!	!	!	!	!	!	!	!	!	!
.	.	4f#X/	.	4a,</	.	.	.	.	.	.	.	.	.	.	.
=6-	=6-	=6-	=6-	=6-	=6-	=6-	=6-	=6-	=6-	=6-	=6-	=6-	=6-	=6-	=6-
1.G	.	2.g/	.	2.b/	.	.	.	.	.	.	.	.	.	.	.
.	.	4g/	.	4b/	.	.	.	.	.	.	.	.	.	.	.
.	.	2g/	.	2b/	.	.	.	.	.	.	.	.	.	.	.
*	*	*custos:ee	*	*custos:gg	*	*	*	*	*	*	*	*	*	*	*
!	!	!LO:LB:g=original	!	!LO:LB:g=original	!	!	!	!	!	!	!	!	!	!	!
2GG/	6	2ee\	.	2gg\	.	.	.	.	.	.	.	.	.	.	.
2AA/	6 5	2ee\	.	2.ff\	.	.	.	.	.	.	.	.	.	.	.
2BB,</	-5	2dd,<\	.	.	.	.	.	.	.	.	.	.	.	.	.
.	.	.	.	4ff,<\	.	.	.	.	.	.	.	.	.	.	.
=7-	=7-	=7-	=7-	=7-	=7-	=7-	=7-	=7-	=7-	=7-	=7-	=7-	=7-	=7-	=7-
2.C/	.	2.cc\	.	2.ee\	.	00.r	.	.	00.r	.	.	00.r	.	.	.
4D/	.	4cc\	.	4ff\	.	.	.	.	.	.	.	.	.	.	.
2E,<\	6	2cc,<\	.	2gg,<\	.	.	.	.	.	.	.	.	.	.	.
2F\	.	2cc\	.	2aa\	.	.	.	.	.	.	.	.	.	.	.
2G\	.	2.cc\	.	2.dd\	.	.	.	.	.	.	.	.	.	.	.
2GG/	.	.	.	.	.	.	.	.	.	.	.	.	.	.	.
!	!	!LO:SIC:s=4b,/	!	!	!	!	!	!	!	!	!	!	!	!	!
.	.	4b/	.	4dd,<\	.	.	.	.	.	.	.	.	.	.	.
*custos:C	*	*	*	*	*	*	*	*	*	*	*	*	*	*	*
!LO:LB:g=original	!	!	!	!	!	!	!	!	!	!	!	!	!	!	!
=8-	=8-	=8-	=8-	=8-	=8-	=8-	=8-	=8-	=8-	=8-	=8-	=8-	=8-	=8-	=8-
!	!	!	!	!	!LO:DY:b:t=pian	!	!	!	!	!	!	!	!	!	!
!	!	!	!	!	!LO:MO:mod=.	!	!	!	!	!	!	!	!	!	!
2.C/	.	1.cc,<	.	2.ee\	p	.	.	.	.	.	.	.	.	.	.
4D/	.	.	.	4ff\	.	.	.	.	.	.	.	.	.	.	.
2E,<\	6	.	.	2gg,<\	.	.	.	.	.	.	.	.	.	.	.
!	!	!	!LO:DY:a:t=Pian	!	!LO:MO:null:mod=p	!	!	!	!	!	!	!	!	!	!
2F\	.	2cc\	p	2aa\	.	.	.	.	.	.	.	.	.	.	.
2G\	.	2.cc\	.	2.dd\	.	.	.	.	.	.	.	.	.	.	.
!LO:TX:t=P:problem:kreska pseudotaktowa	!	!	!	!	!	!	!	!	!	!	!	!	!	!	!
2GG/	.	.	.	.	.	.	.	.	.	.	.	.	.	.	.
.	.	4b/	.	4dd\	.	.	.	.	.	.	.	.	.	.	.
=9-	=9-	=9-	=9-	=9-	=9-	=9-	=9-	=9-	=9-	=9-	=9-	=9-	=9-	=9-	=9-
1.C,<	.	1cc	.	1ee	.	2r	.	.	2r	.	.	2r	.	.	.
.	.	.	.	.	.	2r	.	.	2r	.	.	2r	.	.	.
!	!	!	!	!	!	!LO:TX:t=P:problem:kreska pseudotaktowa	!	!	!	!	!	!LO:TX:t=P:problem:kreska pseudotaktowa	!	!	!
.	.	2r	.	2r	.	2C/	O	O	2c\	O	O	2e\	O	O	.
2C/	.	0.r	.	0.r	.	2C/	plau-	plau-	2e\	plau-	plau-	2g\	plau-	plau-	.
1F,<	.	.	.	.	.	2.F\	-sus	-sus	2.d\	-s(us)	-sus	2.f\	-s(us)	-sus	.
.	.	.	.	.	.	4F\	o-	o-	4c\	o-	o-	4e\	o-	o-	.
=10-	=10-	=10-	=10-	=10-	=10-	=10-	=10-	=10-	=10-	=10-	=10-	=10-	=10-	=10-	=10-
1G	.	.	.	.	.	2G\	-ran-	-ran-	2B\	-ran-	-ran-	2d\	-ran-	-ran-	.
.	.	.	.	.	.	2G\	-tes	-tes	2B\	-tes	-tes	2d\	-tes	-tes	.
!LO:TX:t=P:problem:kreska pseudotaktowa	!	!	!	!	!	!	!	!	!	!	!	!	!	!	!
2E\	6	.	.	.	.	2E\	jun-	jun-	2c\	jun-	jun-	2e\	jun-	jun-	.
2F\	.	2r	.	2r	.	2F\	-ga-	-ga-	2c\	-ga-	-ga-	2e\	-ga-	-ga-	.
1G,<	4:3	2r	.	2r	.	2.G\	-m(us)	-mus	2c\	-m(us)	-mus	2.d\	-m(us)	-mus	.
.	.	2dd,<\	.	2b,</	.	.	.	.	2B\	et	et	.	.	.	.
.	.	.	.	.	.	4GG/	et	et	.	.	.	4e\	et	et	.
=11-	=11-	=11-	=11-	=11-	=11-	=11-	=11-	=11-	=11-	=11-	=11-	=11-	=11-	=11-	=11-
1.C,<	.	2cc\	.	2ee\	.	2C/	nos	nos	2c\	nos	nos	2e\	nos	nos	.
.	.	2.b/	.	2.dd\	.	2r	.	.	2r	.	.	2r	.	.	.
.	.	.	.	.	.	2r	.	.	2r	.	.	2r	.	.	.
.	.	4a,</	.	4cc,<\	.	.	.	.	.	.	.	.	.	.	.
1G	.	2b/	.	2dd\	.	1.r	.	.	0.r	.	.	00.r	.	.	.
.	.	2b/	.	2dd\	.	.	.	.	.	.	.	.	.	.	.
!LO:TX:t=P:problem:kreska pseudotaktowa	!	!	!	!	!	!	!	!	!	!	!	!	!	!	!
2E\	6	2cc,<\	.	2ee,<\	.	.	.	.	.	.	.	.	.	.	.
=12-	=12-	=12-	=12-	=12-	=12-	=12-	=12-	=12-	=12-	=12-	=12-	=12-	=12-	=12-	=12-
2F\	.	2cc\	.	2dd\	.	2r	.	.	.	.	.	.	.	.	.
2D/	.	2.cc\	.	2.dd\	.	2r	.	.	.	.	.	.	.	.	.
2G,<\	.	.	.	.	.	2G\	in	in	.	.	.	.	.	.	.
!	!	!	!	!LO:SIC:s=4dd,\	!	!	!	!	!	!	!	!	!	!	!
.	.	4b,</	.	4dd\	.	.	.	.	.	.	.	.	.	.	.
1.C,<	7:6	1cc	.	1ee	.	2C/	au-	au-	2r	.	.	.	.	.	.
.	.	.	.	.	.	2.C/	-res	-res	2r	.	.	.	.	.	.
.	.	2r	.	2r	.	.	.	.	2e\	in	in	.	.	.	.
.	.	.	.	.	.	4C/	so-	so-	.	.	.	.	.	.	.
=13-	=13-	=13-	=13-	=13-	=13-	=13-	=13-	=13-	=13-	=13-	=13-	=13-	=13-	=13-	=13-
!LO:TX:t=P:problem:kreska pseudotaktowa	!	!LO:TX:a:t=5.:mod=	!	!	!	!	!	!	!	!	!	!	!	!	!
1.D	5:6 #	00.r	.	00.r	.	2D/	-na(n)-	-nan-	2A/	au-	au-	.	.	.	.
.	.	.	.	.	.	2.D/	-tes	-tes,	2.A/	-res	-res	.	.	.	.
!	!	!	!	!	!	!	!	!	!LO:TX:t=P:problem:kreska pseudotaktowa	!	!	!	!	!	!
.	.	.	.	.	.	4D/	in	in	4d\	so-	so-	.	.	.	.
!	!	!	!	!	!	!LO:LB:g=original	!	!	!	!	!	!	!	!	!
1.E	5:6	.	.	.	.	2E\	au-	au-	2B\	-na(n)-	-nan-	2r	.	.	.
.	.	.	.	.	.	2.E\	-res	-res	2B\	-tes	-tes,	2r	.	.	.
.	.	.	.	.	.	.	.	.	2G/	in	in	2g\	in	in	.
.	.	.	.	.	.	4E\	so-	so-	.	.	.	.	.	.	.
=14-	=14-	=14-	=14-	=14-	=14-	=14-	=14-	=14-	=14-	=14-	=14-	=14-	=14-	=14-	=14-
2F\	.	.	.	.	.	2F\	-na(n)-	-nan-	2A/	au-	au-	2c/	au-	au-	.
2.F\	.	.	.	.	.	2.F\	-tes	-tes	2.A/	-res	-res	2.c/	-res	-res	.
4D,</	.	.	.	.	.	4D/	so-	so-	4A/	so-	so-	4f\	so-	so-	.
*	*	*	*	*	*	*	*	*	*custos:B	*	*	*	*	*	*
!	!	!	!	!	!	!	!	!	!LO:LB:g=original	!	!	!	!	!	!
1G	.	.	.	.	.	2G\	-na(n)-	-nan-	2B\	-nan-	-nan-	2d\	-na(n)-	-nan-	.
.	.	.	.	.	.	2G\	-tes	-tes	2.B\	-tes	-tes	2.d\	-tes	-tes	.
!LO:TX:t=P:problem:kreska pseudotaktowa	!	!	!	!	!	!	!	!	!	!	!	!	!	!	!
2BB/	6	.	.	.	.	2BB/	ver-	ver-	.	.	.	.	.	.	.
.	.	.	.	.	.	.	.	.	4G/	ver-	ver-	4d\	ver-	ver-	.
!	!	!	!	!	!	!	!	!	!	!	!	!LO:LB:g=original	!	!	!
=15-	=15-	=15-	=15-	=15-	=15-	=15-	=15-	=15-	=15-	=15-	=15-	=15-	=15-	=15-	=15-
1C	.	1.r	.	0.r	.	2C/	-ta-	-ta-	2G/	-ta-	-ta-	2e\	-ta-	-ta-	.
.	.	.	.	.	.	2C/	-tŭr	-tur,	2A/	-tur	-tur,	2f#X\	-tur	-tur,	.
2BB,</	6	.	.	.	.	2BB/	ver-	ver-	2B\	ver-	ver-	2g\	ver-	ver-	.
2C/	.	2r	.	.	.	2C/	-ta-	-ta-	2B\	-ta-	-ta-	2g\	-ta-	-ta-	.
1D	4:3	2r	.	.	.	2.D/	-tur	-tur	2.A/	-tur	-tur	2.g\	-tur	-tur	.
.	.	2dd,<\	.	.	.	.	.	.	.	.	.	.	.	.	.
.	.	.	.	.	.	4D/	jam	iam	4B\	ja(m)	iam	4f#X\	jam	iam	.
*custos:GG	*	*	*	*	*	*	*	*	*	*	*	*	*	*	*
!LO:LB:g=original	!	!	!	!	!	!	!	!	!	!	!	!	!	!	!
=16-	=16-	=16-	=16-	=16-	=16-	=16-	=16-	=16-	=16-	=16-	=16-	=16-	=16-	=16-	=16-
1.GG	5:6	2b/	.	2r	.	1.GG	vox	vox,	1B	vox,	vox,	1g	vox,	vox,	.
.	.	2.b/	.	2r	.	.	.	.	.	.	.	.	.	.	.
.	.	.	.	2gg,<\	.	.	.	.	2r	.	.	2r	.	.	.
!	!	!LO:SIC:s=4ee,\	!	!	!	!	!	!	!	!	!	!	!	!	!
.	.	4ee\	.	.	.	.	.	.	.	.	.	.	.	.	.
*	*	*custos:ee	*	*	*	*	*	*	*	*	*	*	*	*	*
!	!	!LO:LB:g=original	!	!	!	!	!	!	!	!	!	!	!	!	!
2AA/	5	2ee\	.	2cc\	.	0.r	.	.	00.r	.	.	00.r	.	.	.
2.AA/	6	2a/	.	2cc\	.	.	.	.	.	.	.	.	.	.	.
*	*	*	*	*col	*	*	*	*	*	*	*	*	*	*	*
!	!	!	!	!LO:TX:t=P:problem:nie wyświetla się kolorowanie	!	!	!	!	!	!	!	!	!	!	!
!	!	!	!	!LO:MO:mod=[2ff\	!	!	!	!	!	!	!	!	!	!	!
.	.	2aa,<\	.	1ff,<\	.	.	.	.	.	.	.	.	.	.	.
!LO:TX:t=P:problem:kreska pseudotaktowa	!	!	!	!	!	!	!	!	!	!	!	!	!	!	!
4BB/	.	.	.	.	.	.	.	.	.	.	.	.	.	.	.
=17-	=17-	=17-	=17-	=17-	=17-	=17-	=17-	=17-	=17-	=17-	=17-	=17-	=17-	=17-	=17-
!	!	!	!	!LO:MO:null:mod=2ff,]\	!	!	!	!	!	!	!	!	!	!	!
1.C	4:3	1gg	.	.	.	.	.	.	.	.	.	.	.	.	.
*	*	*	*	*Xcol	*	*	*	*	*	*	*	*	*	*	*
*	*	*	*	*custos:ee	*	*	*	*	*	*	*	*	*	*	*
!	!	!	!	!LO:LB:g=original	!	!	!	!	!	!	!	!	!	!	!
.	.	.	.	2.ee\	.	.	.	.	.	.	.	.	.	.	.
!	!	!LO:SIC:s=2gg,\	!	!	!	!	!	!	!	!	!	!	!	!	!
.	.	2gg\	.	.	.	.	.	.	.	.	.	.	.	.	.
.	.	.	.	4ee,<\	.	.	.	.	.	.	.	.	.	.	.
!LO:TX:t=P:problem:kreska pseudotaktowa	!	!	!	!	!	!	!	!	!	!	!	!	!	!	!
1.D	-	2ff\	.	2dd\	.	1.r	.	.	.	.	.	.	.	.	.
.	.	2dd\	.	2b/	.	.	.	.	.	.	.	.	.	.	.
!	!	!LO:SIC:s=2cc,\	!	!	!	!	!	!	!	!	!	!	!	!	!
.	.	2cc\	.	2a,</	.	.	.	.	.	.	.	.	.	.	.
=18-	=18-	=18-	=18-	=18-	=18-	=18-	=18-	=18-	=18-	=18-	=18-	=18-	=18-	=18-	=18-
2E\	.	2cc\	.	1a	.	2r	.	.	.	.	.	.	.	.	.
1EE,<	.	1b	.	.	.	2r	.	.	.	.	.	.	.	.	.
.	.	.	.	2g#X/	.	2E\	in	in	.	.	.	.	.	.	.
1.AA,<	.	1cc	.	1a	.	2.AA/	au-	au-	0.r	.	.	2r	.	.	.
.	.	.	.	.	.	.	.	.	.	.	.	2r	.	.	.
.	.	.	.	.	.	4AA/	-res	-res	.	.	.	.	.	.	.
.	.	2r	.	2r	.	2AA/	so-	so-	.	.	.	2a\	in	in	.
*	*	*	*	*	*	*custos:BB	*	*	*	*	*	*	*	*	*
!	!	!	!	!	!	!LO:LB:g=original	!	!	!	!	!	!	!	!	!
=19-	=19-	=19-	=19-	=19-	=19-	=19-	=19-	=19-	=19-	=19-	=19-	=19-	=19-	=19-	=19-
!	!	!LO:TX:a:t=5:mod=	!	!	!	!	!	!	!	!	!	!	!	!	!
2BB/	.	00.r	.	00.r	.	2BB/	-nan-	-nan-	.	.	.	2d\	au-	au-	.
2.BB/	.	.	.	.	.	2.BB/	-tes	-tes,	.	.	.	2d\	-res	-res	.
.	.	.	.	.	.	.	.	.	.	.	.	4g\	so-	so-	.
!	!	!	!	!	!	!	!	!	!	!	!	!LO:TX:a:t=P:problem:# above	!	!	!
!LO:TX:t=P:problem:kreska pseudotaktowa	!	!	!	!	!	!	!	!	!	!	!	!LO:TX:t=P:problem:kreska pseudotaktowa	!	!	!
4C#X/	.	.	.	.	.	4C#X/	so-	so-	.	.	.	4f#X\i	.	.	.
1D	.	.	.	.	.	2D/	-nan-	-nan-	2r	.	.	2f#\	-nan-	-nan-	.
.	.	.	.	.	.	2.D/	-tes	-tes	2r	.	.	2.f#\	-tes	-tes,	.
2D,</	.	.	.	.	.	.	.	.	2d\	in	in	.	.	.	.
.	.	.	.	.	.	4D/	in	in	.	.	.	4f#\	in	in	.
=20-	=20-	=20-	=20-	=20-	=20-	=20-	=20-	=20-	=20-	=20-	=20-	=20-	=20-	=20-	=20-
2E\	.	.	.	.	.	2E\	au-	au-	2G/	au-	au-	2g\	au-	au-	.
2.E\	.	.	.	.	.	2.E\	-re[s]	-res,	2G/	-res	-res	2.g\	-res	-res	.
.	.	.	.	.	.	.	.	.	(4c\	so-	so-	.	.	.	.
!LO:TX:t=P:problem:kreska pseudotaktowa	!	!	!	!	!	!	!	!	!	!	!	!	!	!	!
4F#X\	.	.	.	.	.	4F#X\	so-	so-	4B\)	.	.	4a\	so-	so-	.
2.G\	.	.	.	.	.	2.G\	-na(n)-	-nan-	2B\	-nan-	-nan-	2d\	-nan-	-nan-	.
.	.	.	.	.	.	.	.	.	2B\	-tes	-tes	2d\	-tes	-tes	.
4Fn\	.	.	.	.	.	4Fn\	-tes	-tes	.	.	.	.	.	.	.
2E,<\	.	.	.	.	.	2E\	ver-	ver-	2c\	ver-	ver-	2e\	ver-	ver-	.
*	*	*	*	*	*	*	*	*	*	*	*	*custos:e	*	*	*
!	!	!	!	!	!	!	!	!	!	!	!	!LO:LB:g=original	!	!	!
=21-	=21-	=21-	=21-	=21-	=21-	=21-	=21-	=21-	=21-	=21-	=21-	=21-	=21-	=21-	=21-
2F\	.	1.r	.	2r	.	2F\	-ta-	-ta-	2c\	-ta-	-ta-	2e\	-ta-	-ta-	.
2G\	4:3	.	.	2r	.	2G\	-tur	-tur	2.c\	-tur	-tur	2.d\	-tur	-tur	.
!LO:TX:t=P:problem:kreska pseudotaktowa	!	!	!	!	!	!	!	!	!	!	!	!	!	!	!
2GG/	.	.	.	2gg,<\	.	2GG/	jam	iam	.	.	.	.	.	.	.
.	.	.	.	.	.	.	.	.	4B\	jam	iam	4d\	jam	iam	.
1C	.	2r	.	2ee\	.	1C	vox	vox,	1c	vox	vox,	1e	vox	vox,	.
.	.	2r	.	2ee\	.	.	.	.	.	.	.	.	.	.	.
2C,</	.	2ee,<\	.	2cc,<\	.	2r	.	.	2r	.	.	2r	.	.	.
!	!	!	!	!	!	!	!	!	!LO:LB:g=original	!	!	!	!	!	!
=22-	=22-	=22-	=22-	=22-	=22-	=22-	=22-	=22-	=22-	=22-	=22-	=22-	=22-	=22-	=22-
1F	.	2cc\	.	2a/	.	00.r	.	.	0.r	.	.	0.r	.	.	.
.	.	2cc\	.	2a/	.	.	.	.	.	.	.	.	.	.	.
2F\	.	2a,</	.	2aa,<\	.	.	.	.	.	.	.	.	.	.	.
*custos:G	*	*	*	*	*	*	*	*	*	*	*	*	*	*	*
!LO:LB:g=original	!	!	!	!	!	!	!	!	!	!	!	!	!	!	!
1G	.	2b/	.	2gg\	.	.	.	.	.	.	.	.	.	.	.
.	.	2cc#X\	.	2aa\	.	.	.	.	.	.	.	.	.	.	.
2B-X,<\	.	2dd,<\	.	2ff,<\	.	.	.	.	.	.	.	.	.	.	.
=23-	=23-	=23-	=23-	=23-	=23-	=23-	=23-	=23-	=23-	=23-	=23-	=23-	=23-	=23-	=23-
2G\	.	1dd	.	1ee	.	.	.	.	1.r	.	.	2r	.	.	.
2A\	4:3	.	.	.	.	.	.	.	.	.	.	2r	.	.	.
!LO:TX:t=P:problem:kreska pseudotaktowa	!	!LO:SIC:s=2cc#X\,	!	!	!	!	!	!	!	!	!	!	!	!	!
2AA/	.	2cc#X\	.	2ee,<\	.	.	.	.	.	.	.	2a\	in	in	.
1.D	#	1dd	.	2.ff#X\	.	.	.	.	2r	.	.	2f#X\	au-	au-	.
.	.	.	.	.	.	.	.	.	2r	.	.	2.f#\	-res	-res	.
.	.	.	.	4gg\	.	.	.	.	.	.	.	.	.	.	.
.	.	2dd\	.	2aa\	.	.	.	.	2d\	in	in	.	.	.	.
.	.	.	.	.	.	.	.	.	.	.	.	4f#\	so-	so-	.
=24-	=24-	=24-	=24-	=24-	=24-	=24-	=24-	=24-	=24-	=24-	=24-	=24-	=24-	=24-	=24-
!LO:TX:t=P:problem:kreska pseudotaktowa	!	!LO:SIC:s=1.dd,	!	!	!	!	!	!	!	!	!	!	!	!	!
1.GG	.	1.dd	.	1.gg,<	.	2r	.	.	2B\	au-	au-	4g\	-nan-	-nan-	.
.	.	.	.	.	.	.	.	.	.	.	.	4f\	.	.	.
.	.	.	.	.	.	2r	.	.	2.B\	-res	-res	4g\	.	.	.
.	.	.	.	.	.	.	.	.	.	.	.	4d\	.	.	.
.	.	.	.	.	.	2G\	in	in	.	.	.	4e\	.	.	.
.	.	.	.	.	.	.	.	.	4B\	so-	so-	4f\	.	.	.
1C	.	1cc	.	1gg	.	2C/	au-	au-	2c\	-nan-	-nan-	2e\	.	.	.
.	.	.	.	.	.	2C/	-res	-res	2c\	-tes	-tes	2e\	-tes	-tes,	.
2C,</	.	2cc,<\	.	2gg,<\	.	2C/	so-	so-	2e\	in	in	2g\	in	in	.
*	*	*	*	*	*	*custos:E	*	*	*	*	*	*	*	*	*
!	!	!	!	!	!	!LO:LB:g=original	!	!	!	!	!	!	!	!	!
=25-	=25-	=25-	=25-	=25-	=25-	=25-	=25-	=25-	=25-	=25-	=25-	=25-	=25-	=25-	=25-
2E\	6	2cc\	.	2gg\	.	2E\	-nan-	-nan-	2e\	au-	au-	2g\	au-	au-	.
!LO:TX:t=P:problem:kreska pseudotaktowa	!	!LO:SIC:s=1a,	!	!	!	!	!	!	!	!	!	!	!	!	!
1F	.	1a	.	1aa,<	.	2.F\	-tes	-tes	2.d\	-res	-res	2.f\	-res	-res	.
.	.	.	.	.	.	4F\	so-	so-	4c\	so-	so-	4e\	so-	so-	.
1G	.	1b	.	1gg	.	2G\	-na(n)-	-nan-	2B\	-na(n)-	-nan-	2d\	-nan-	-nan-	.
.	.	.	.	.	.	2G\	-tes	-tes	2B\	-tes	-tes	2d\	-tes	-tes	.
2E\	6	2g/	.	2gg,<\	.	2E\	ver-	ver-	2c\	ver-	ver-	2e\	ver-	ver-	.
*	*	*custos:dd	*	*	*	*	*	*	*	*	*	*custos:e	*	*	*
!	!	!LO:LB:g=original	!	!	!	!	!	!	!	!	!	!LO:LB:g=original	!	!	!
=26-	=26-	=26-	=26-	=26-	=26-	=26-	=26-	=26-	=26-	=26-	=26-	=26-	=26-	=26-	=26-
2F\	.	2r	.	2aa\	.	2F\	-ta-	-ta-	2c\	-ta-	-ta-	2e\	-ta-	-ta-	.
!LO:TX:t=P:problem:kreska pseudotaktowa	!	!	!	!LO:SIC:s=1gg,	!	!	!	!	!	!	!	!	!	!	!
1G	4:3	2.dd\	.	1gg	.	2G\	-tur	-tur	2.c\	-tur	-tur	2.d\	-tur	-tur	.
.	.	.	.	.	.	2GG/	jam	iam	.	.	.	.	.	.	.
.	.	4dd,<\	.	.	.	.	.	.	4B\	ja(m)	iam	4e\	jam	iam	.
*	*	*	*	*custos:gg	*	*	*	*	*	*	*	*	*	*	*
!	!	!	!	!LO:LB:g=original	!	!	!	!	!	!	!	!	!	!	!
1C	.	2.ee\	.	1gg	.	1C	vox	vox,	1c	vox	vox,	1c	vox	vox,	.
.	.	4dd\	.	.	.	.	.	.	.	.	.	.	.	.	.
!	!	!	!	!	!LO:DY:a:t=pian	!	!	!	!	!	!	!	!	!	!
!	!	!	!	!	!LO:MO:mod=!null:null	!	!	!	!	!	!	!	!	!	!
2EE,</	6	2cc\	.	2gg,<\	p	2EE/	ver-	ver-	2c\	ver-	ver-	2e\	ver-	ver-	.
=27-	=27-	=27-	=27-	=27-	=27-	=27-	=27-	=27-	=27-	=27-	=27-	=27-	=27-	=27-	=27-
!	!	!	!	!	!	!	!	!	!	!	!	!	!	!	!LO:DY:a:t=pian
2FF/	.	2r	.	2aa\	.	2FF/	-ta-	-ta-	2c\	-ta-	-ta-	2e\	-ta-	-ta-	p
!LO:TX:t=P:problem:kreska pseudotaktowa	!	!	!LO:DY:a	!	!	!	!	!	!	!	!	!	!	!	!
!	!	!LO:SIC:s=1dd,	!LO:MO:mod=.	!	!	!	!	!	!	!	!	!	!	!	!
1GG	.	1dd	f	1gg,<	.	2.GG/	-tur	-tur	2.c\	-tur	-tur	2.d\	-tur	-tur	.
.	.	.	.	.	.	4GG/	ja(m)	iam	4B\	ja(m)	iam	4e\	ja(m)	iam	.
!!LO:TX:a:B:t=:mod=Sinfonia
!LO:TX:b:i:t=Sinfoni:mod=	!	!	!LO:MO:null:mod=f	!	!	!	!	!	!	!	!	!	!	!	!
1.C	.	4ee\	.	2gg\	.	2C/	vox	vox.	2c\	vox	vox.	2c/	vox	vox.	.
.	.	4ff\	.	.	.	.	.	.	.	.	.	.	.	.	.
.	.	4gg\	.	2r	.	2r	.	.	2r	.	.	2r	.	.	.
.	.	4cc\	.	.	.	.	.	.	.	.	.	.	.	.	.
.	.	4b-X/	.	2r,<	.	2r	.	.	2r	.	.	2r	.	.	.
.	.	4cc,<\	.	.	.	.	.	.	.	.	.	.	.	.	.
!	!	!	!	!	!	!	!	!	!LO:LB:g=original	!	!	!	!	!	!
=28-	=28-	=28-	=28-	=28-	=28-	=28-	=28-	=28-	=28-	=28-	=28-	=28-	=28-	=28-	=28-
!	!	!	!	!	!LO:MO:null:mod=!LO&colon;DY&colon;ed=brack	!	!	!	!	!	!	!	!	!	!
!	!	!	!	!	!	!	!	!	!	!	!	!	!	!	!
!	!	!	!	!	!LO:MO:null:mod=f	!	!	!	!	!	!	!	!	!	!
1.FF	.	2a/	.	4aa\	.	00.r	.	.	00.r	.	.	00.r	.	.	.
.	.	.	.	4bb-X\	.	.	.	.	.	.	.	.	.	.	.
.	.	2.a/	.	4ccc\	.	.	.	.	.	.	.	.	.	.	.
.	.	.	.	4ff\	.	.	.	.	.	.	.	.	.	.	.
.	.	.	.	4gg\	.	.	.	.	.	.	.	.	.	.	.
.	.	4b,</	.	4ff,<\	.	.	.	.	.	.	.	.	.	.	.
!LO:TX:t=P:problem:kreska pseudotaktowa	!	!	!	!	!	!	!	!	!	!	!	!	!	!	!
1.C	.	4cc\	.	4ee\	.	.	.	.	.	.	.	.	.	.	.
.	.	4b/	.	4dd\	.	.	.	.	.	.	.	.	.	.	.
.	.	4cc\	.	4ee\	.	.	.	.	.	.	.	.	.	.	.
.	.	4dd\	.	4ff\	.	.	.	.	.	.	.	.	.	.	.
.	.	4ee\	.	4gg\	.	.	.	.	.	.	.	.	.	.	.
.	.	4ff,<\	.	4aa,<\	.	.	.	.	.	.	.	.	.	.	.
=29-	=29-	=29-	=29-	=29-	=29-	=29-	=29-	=29-	=29-	=29-	=29-	=29-	=29-	=29-	=29-
1GG	-	2gg\	.	2bb-X\	.	.	.	.	.	.	.	.	.	.	.
.	.	4g/	.	4b-X/	.	.	.	.	.	.	.	.	.	.	.
.	.	4a/	.	4cc\	.	.	.	.	.	.	.	.	.	.	.
!	!	!LO:SIC:v:s=4b-/	!	!	!	!	!	!	!	!	!	!	!	!	!
2G,<\	-	4b/	.	4dd\	.	.	.	.	.	.	.	.	.	.	.
.	.	4cc,<\	.	4ee,<\	.	.	.	.	.	.	.	.	.	.	.
1.D,<	-	4dd\	.	4ff\	.	.	.	.	.	.	.	.	.	.	.
.	.	4cc\	.	4ee\	.	.	.	.	.	.	.	.	.	.	.
.	.	4dd\	.	4ff\	.	.	.	.	.	.	.	.	.	.	.
.	.	4ee\	.	4gg\	.	.	.	.	.	.	.	.	.	.	.
.	.	4ff\	.	4aa\	.	.	.	.	.	.	.	.	.	.	.
!	!	!	!	!LO:SIC:s=4bb-,\	!	!	!	!	!	!	!	!	!	!	!
.	.	4gg,<\	.	4bb-\	.	.	.	.	.	.	.	.	.	.	.
=30-	=30-	=30-	=30-	=30-	=30-	=30-	=30-	=30-	=30-	=30-	=30-	=30-	=30-	=30-	=30-
!LO:TX:t=P:problem:kreska pseudotaktowa	!	!	!	!	!	!	!	!	!	!	!	!	!	!	!
1.AA,<	.	4aa\	.	4ccc\	.	00.r	.	.	00.r	.	.	00.r	.	.	.
.	.	4ff\	.	4aa\	.	.	.	.	.	.	.	.	.	.	.
.	.	4aa\	.	4ccc\	.	.	.	.	.	.	.	.	.	.	.
.	.	4gg\	.	4bb-X\	.	.	.	.	.	.	.	.	.	.	.
.	.	4ff\	.	4aa\	.	.	.	.	.	.	.	.	.	.	.
!	!	!LO:SIC:s=4ee,\	!	!	!	!	!	!	!	!	!	!	!	!	!
.	.	4ee\	.	4gg,<\	.	.	.	.	.	.	.	.	.	.	.
*	*	*custos:dd	*	*	*	*	*	*	*	*	*	*	*	*	*
!	!	!LO:LB:g=original	!	!	!	!	!	!	!	!	!	!	!	!	!
1.BB-X	5	4dd\	.	4ff\	.	.	.	.	.	.	.	.	.	.	.
.	.	4b-X/	.	4dd\	.	.	.	.	.	.	.	.	.	.	.
.	.	4dd\	.	4ff\	.	.	.	.	.	.	.	.	.	.	.
.	.	4cc\	.	4ee\	.	.	.	.	.	.	.	.	.	.	.
.	.	4b-X/	.	4dd\	.	.	.	.	.	.	.	.	.	.	.
!	!	!	!	!LO:SIC:s=4cc,\	!	!	!	!	!	!	!	!	!	!	!
.	.	4a,</	.	4cc\	.	.	.	.	.	.	.	.	.	.	.
*custos:	*	*	*	*custos:dd	*	*	*	*	*	*	*	*	*	*	*
!LO:LB:g=original	!	!	!	!LO:LB:g=original	!	!	!	!	!	!	!	!	!	!	!
=31-	=31-	=31-	=31-	=31-	=31-	=31-	=31-	=31-	=31-	=31-	=31-	=31-	=31-	=31-	=31-
1.BB-X,<	6	4b-X/	.	4dd\	.	.	.	.	.	.	.	.	.	.	.
.	.	4g/	.	4b-X/	.	.	.	.	.	.	.	.	.	.	.
.	.	4b-X/	.	4dd\	.	.	.	.	.	.	.	.	.	.	.
.	.	4a/	.	4cc\	.	.	.	.	.	.	.	.	.	.	.
.	.	4g/	.	4b-X/	.	.	.	.	.	.	.	.	.	.	.
.	.	4f,</	.	4a,</	.	.	.	.	.	.	.	.	.	.	.
2.C/	.	2e/	.	2g/	.	.	.	.	.	.	.	.	.	.	.
.	.	4f/	.	4a/	.	.	.	.	.	.	.	.	.	.	.
4BB-/	.	4g/	.	4b-/	.	.	.	.	.	.	.	.	.	.	.
!LO:TX:t=P:problem:kreska pseudotaktowa	!	!LO:SIC:s=2a,/	!	!	!	!	!	!	!	!	!	!	!	!	!
2AA/	6	2a/	.	2cc,<\	.	.	.	.	.	.	.	.	.	.	.
=32-	=32-	=32-	=32-	=32-	=32-	=32-	=32-	=32-	=32-	=32-	=32-	=32-	=32-	=32-	=32-
2BB-X/	.	2f/	.	2dd\	.	00.r	.	.	00.r	.	.	00.r	.	.	.
1C,<	4:3	2.e/	.	2.g/	.	.	.	.	.	.	.	.	.	.	.
.	.	4e,</	.	4g,</	.	.	.	.	.	.	.	.	.	.	.
1.FF	.	4a/	.	2f/	.	.	.	.	.	.	.	.	.	.	.
.	.	4b-X/	.	.	.	.	.	.	.	.	.	.	.	.	.
.	.	4cc\	.	2r	.	.	.	.	.	.	.	.	.	.	.
.	.	4f/	.	.	.	.	.	.	.	.	.	.	.	.	.
.	.	4g/	.	2r,<	.	.	.	.	.	.	.	.	.	.	.
.	.	4f,</	.	.	.	.	.	.	.	.	.	.	.	.	.
=33-	=33-	=33-	=33-	=33-	=33-	=33-	=33-	=33-	=33-	=33-	=33-	=33-	=33-	=33-	=33-
!LO:TX:t=P:problem:kreska pseudotaktowa	!	!	!	!	!	!	!	!	!	!	!	!	!	!	!
1.C	.	2e/	.	4ee\	.	.	.	.	.	.	.	.	.	.	.
.	.	.	.	4ff\	.	.	.	.	.	.	.	.	.	.	.
.	.	2.ee\	.	4gg\	.	.	.	.	.	.	.	.	.	.	.
.	.	.	.	4cc\	.	.	.	.	.	.	.	.	.	.	.
.	.	.	.	4dd\	.	.	.	.	.	.	.	.	.	.	.
.	.	4ee,<\	.	4cc,<\	.	.	.	.	.	.	.	.	.	.	.
1G	.	1dd	.	4b/	.	.	.	.	.	.	.	.	.	.	.
.	.	.	.	4cc\	.	.	.	.	.	.	.	.	.	.	.
.	.	.	.	4dd\	.	.	.	.	.	.	.	.	.	.	.
.	.	.	.	4g/	.	.	.	.	.	.	.	.	.	.	.
!	!	!LO:SIC:s=2dd,\	!	!	!	!	!	!	!	!	!	!	!	!	!
2F,<\	.	2dd\	.	4a/	.	.	.	.	.	.	.	.	.	.	.
.	.	.	.	4b,</	.	.	.	.	.	.	.	.	.	.	.
=34-	=34-	=34-	=34-	=34-	=34-	=34-	=34-	=34-	=34-	=34-	=34-	=34-	=34-	=34-	=34-
2E\	.	2ee\	.	2cc\	.	0.r	.	.	0.r	.	.	0.r	.	.	.
2F\	.	2.dd\	.	2.cc\	.	.	.	.	.	.	.	.	.	.	.
!LO:TX:t=P:problem:kreska pseudotaktowa	!	!	!	!	!	!	!	!	!	!	!	!	!	!	!
2G\	.	.	.	.	.	.	.	.	.	.	.	.	.	.	.
.	.	4dd\	.	4b/	.	.	.	.	.	.	.	.	.	.	.
!LO:SIC:s=1.C;	!	!LO:SIC:s=1.ee;	!	!	!	!	!	!	!	!	!	!	!	!	!
1.C	.	1.ee	.	1.cc;	.	.	.	.	.	.	.	.	.	.	.
=35||-	=35||-	=35||-	=35||-	=35||-	=35||-	=35||-	=35||-	=35||-	=35||-	=35||-	=35||-	=35||-	=35||-	=35||-	=35||-
!	!	!	!	!	!	!LO:MO:null:mod=*M2/1	!	!	!	!	!	!	!	!	!
*M2/1	*	*M2/1	*	*M2/1	*	*	*	*	*M2/1	*	*	*M2/1	*	*	*
*met(C)	*	*met(C)	*	*met(C)	*	*	*	*	*met(C|)	*	*	*met(C)	*	*	*
!LO:TX:b:i:t=Alt sol&colon;:mod=	!	!LO:TX:a:t=10.:mod=	!	!LO:TX:a:t=10.:mod=	!	!LO:TX:a:t=Sed quo\nego\ntacet:mod=	!	!	!LO:TX:a:t=Sed quo ego\nTacet:mod=	!	!	!	!	!	!
1C	.	00r	.	00r	.	0ryy	.	.	0ryy	.	.	4r	.	.	.
.	.	.	.	.	.	.	.	.	.	.	.	8g\	Sed	Sed	.
.	.	.	.	.	.	.	.	.	.	.	.	8g\	quo	quo	.
.	.	.	.	.	.	.	.	.	.	.	.	8e\	e-	e-	.
.	.	.	.	.	.	.	.	.	.	.	.	8e\	-go	-go	.
.	.	.	.	.	.	.	.	.	.	.	.	8f\	te	te	.
!	!	!	!	!	!	!	!	!	!	!	!	!LO:TX:t=P:problem:kreska pseudotaktowa	!	!	!
.	.	.	.	.	.	.	.	.	.	.	.	8g\	pre-	pre-	.
2AA/	7:6|	.	.	.	.	.	.	.	.	.	.	8.c/	-co-	-co-	.
.	.	.	.	.	.	.	.	.	.	.	.	16c/	-ni-	-ni-	.
.	.	.	.	.	.	.	.	.	.	.	.	8.c/	-o	-o	.
.	.	.	.	.	.	.	.	.	.	.	.	16B/	lau-	lau-	.
!LO:TX:t=P:problem:kreska pseudotaktowa	!	!	!	!	!	!	!	!	!	!	!	!	!	!	!
!LO:TX:t=P:problem: ligatura od góry i od dołu	!	!	!	!	!	!	!	!	!	!	!	!	!	!	!
[2GG/	.	.	.	.	.	.	.	.	.	.	.	4d\	-da-	-da-	.
.	.	.	.	.	.	.	.	.	.	.	.	4d\	-bo	-bo,	.
!	!	!	!	!	!	!	!	!	!	!	!	!LO:LB:g=original	!	!	!
=36-	=36-	=36-	=36-	=36-	=36-	=36-	=36-	=36-	=36-	=36-	=36-	=36-	=36-	=36-	=36-
2GG/]	.	.	.	.	.	0ryy	.	.	0ryy	.	.	8r	.	.	.
.	.	.	.	.	.	.	.	.	.	.	.	8d\	quem	quem	.
.	.	.	.	.	.	.	.	.	.	.	.	8d\	ad-	ad-	.
.	.	.	.	.	.	.	.	.	.	.	.	8e\	-mi-	-mi-	.
2D/	.	.	.	.	.	.	.	.	.	.	.	4.f\	-ra(n)-	-ran-	.
!	!	!	!	!	!	!	!	!	!	!	!	!LO:TX:t=P:problem:kreska pseudotaktowa	!	!	!
.	.	.	.	.	.	.	.	.	.	.	.	8e\	-tur	-tur	.
!LO:TX:t=P:problem:kreska pseudotaktowa	!	!	!	!	!	!	!	!	!	!	!	!	!	!	!
!LO:TX:t=P:problem: ligatura od góry i od dołu	!	!	!	!	!	!	!	!	!	!	!	!	!	!	!
[1AA	#	.	.	.	.	.	.	.	.	.	.	8.e\	An-	An-	.
.	.	.	.	.	.	.	.	.	.	.	.	16e\	-ge-	-ge-	.
.	.	.	.	.	.	.	.	.	.	.	.	4e\	-li	-li,	.
.	.	.	.	.	.	.	.	.	.	.	.	8r	.	.	.
.	.	.	.	.	.	.	.	.	.	.	.	4a\	quem	quem	.
!	!	!	!	!	!	!	!	!	!	!	!	!LO:TX:t=P:problem:kreska pseudotaktowa	!	!	!
.	.	.	.	.	.	.	.	.	.	.	.	8g\	coe-	coe-	.
=37-	=37-	=37-	=37-	=37-	=37-	=37-	=37-	=37-	=37-	=37-	=37-	=37-	=37-	=37-	=37-
2AA/]	6 4 2	00r	.	00r	.	0ryy	.	.	0ryy	.	.	8g\	-le-	-le-	.
.	.	.	.	.	.	.	.	.	.	.	.	8g\	-stis	-stis	.
.	.	.	.	.	.	.	.	.	.	.	.	8g\	pa-	pa-	.
.	.	.	.	.	.	.	.	.	.	.	.	16g\	-tri-	-tri-	.
.	.	.	.	.	.	.	.	.	.	.	.	16a\	-ae	-ae	.
!LO:TX:t=P:problem: ligatura od góry i od dołu	!	!	!	!	!	!	!	!	!	!	!	!	!	!	!
[2D,</	.	.	.	.	.	.	.	.	.	.	.	8.f\	in-	in-	.
.	.	.	.	.	.	.	.	.	.	.	.	16f\	-co-	-co-	.
!	!	!	!	!	!	!	!	!	!	!	!	!LO:TX:t=P:problem:kreska pseudotaktowa	!	!	!
.	.	.	.	.	.	.	.	.	.	.	.	4f\	-lae	-lae	.
2D/]	.	.	.	.	.	.	.	.	.	.	.	4r	.	.	.
.	.	.	.	.	.	.	.	.	.	.	.	8e\	mi-	mi-	.
.	.	.	.	.	.	.	.	.	.	.	.	8e\	-ra-	-ra-	.
*	*	*	*	*	*	*	*	*	*	*	*	*custos:g	*	*	*
!LO:N:acc=#	!	!	!	!	!	!	!	!	!	!	!	!LO:LB:g=original	!	!	!
2BBn/	6 -5	.	.	.	.	.	.	.	.	.	.	(8g\L	-bun-	-bun-	.
.	.	.	.	.	.	.	.	.	.	.	.	8f\J)	.	.	.
.	.	.	.	.	.	.	.	.	.	.	.	8.f\	-do	-do	.
.	.	.	.	.	.	.	.	.	.	.	.	16e\	ser-	ser-	.
*custos:C	*	*	*	*	*	*	*	*	*	*	*	*	*	*	*
!LO:LB:g=original	!	!	!	!	!	!	!	!	!	!	!	!	!	!	!
=38-	=38-	=38-	=38-	=38-	=38-	=38-	=38-	=38-	=38-	=38-	=38-	=38-	=38-	=38-	=38-
2C/	.	.	.	.	.	0ryy	.	.	0ryy	.	.	8e\	-mo-	-mo-	.
.	.	.	.	.	.	.	.	.	.	.	.	8e\	-ne	-ne,	.
.	.	.	.	.	.	.	.	.	.	.	.	8.g\	mi-	mi-	.
.	.	.	.	.	.	.	.	.	.	.	.	16g\	-ra-	-ra-	.
2E\	6 -5	.	.	.	.	.	.	.	.	.	.	8cc\L	-bun-	-bun-	.
!	!	!	!	!	!	!	!	!	!	!	!	!LO:TX:a:t=P:problem:♭ above	!	!	!
.	.	.	.	.	.	.	.	.	.	.	.	8b-X\Ji	.	.	.
.	.	.	.	.	.	.	.	.	.	.	.	8.b-X\	-do	-do	.
.	.	.	.	.	.	.	.	.	.	.	.	16a\	ser-	ser-	.
2F\	.	.	.	.	.	.	.	.	.	.	.	8a\	-mo-	-mo-	.
.	.	.	.	.	.	.	.	.	.	.	.	8a\	-ne	-ne	.
.	.	.	.	.	.	.	.	.	.	.	.	8.f\	ve-	ve-	.
.	.	.	.	.	.	.	.	.	.	.	.	16a\	-ne-	-ne-	.
!LO:TX:t=P:problem:kreska pseudotaktowa	!	!	!	!	!	!	!	!	!	!	!	!	!	!	!
2BB-X/	.	.	.	.	.	.	.	.	.	.	.	8d\	-ra(n)-	-ran-	.
.	.	.	.	.	.	.	.	.	.	.	.	8d\	-tur	-tur,	.
.	.	.	.	.	.	.	.	.	.	.	.	8b-X\	ve-	ve-	.
.	.	.	.	.	.	.	.	.	.	.	.	8dd\	-ne-	-ne-	.
=39-	=39-	=39-	=39-	=39-	=39-	=39-	=39-	=39-	=39-	=39-	=39-	=39-	=39-	=39-	=39-
2C/	.	0r	.	0r	.	0ryy	.	.	0ryy	.	.	8e\L	-ran-	-ran-	.
.	.	.	.	.	.	.	.	.	.	.	.	16f\L	.	.	.
.	.	.	.	.	.	.	.	.	.	.	.	16g\JJ	.	.	.
.	.	.	.	.	.	.	.	.	.	.	.	8c\L	.	.	.
.	.	.	.	.	.	.	.	.	.	.	.	16d\L	.	.	.
.	.	.	.	.	.	.	.	.	.	.	.	16e\JJ	.	.	.
!	!	!	!	!	!	!	!	!	!	!	!	!LO:LB:g=original	!	!	!
4.AA/	.	.	.	.	.	.	.	.	.	.	.	16f\LL	.	.	.
.	.	.	.	.	.	.	.	.	.	.	.	16g\	.	.	.
.	.	.	.	.	.	.	.	.	.	.	.	16a\	.	.	.
.	.	.	.	.	.	.	.	.	.	.	.	16b\JJ	.	.	.
.	.	.	.	.	.	.	.	.	.	.	.	8cc\	.	.	.
8BB-X/	.	.	.	.	.	.	.	.	.	.	.	16b-X\	-tur	-tur	.
.	.	.	.	.	.	.	.	.	.	.	.	16a\	et	et	.
2C/	4	.	.	.	.	.	.	.	.	.	.	4.g\	ce-	ce-	.
.	.	.	.	.	.	.	.	.	.	.	.	8f\	-le-	-le-	.
2FF/	3	.	.	.	.	.	.	.	.	.	.	2f\	-brant	-brant.	.
!	!	!LO:LB:g=original	!	!	!	!	!	!	!	!	!	!	!	!	!
=40||-	=40||-	=40||-	=40||-	=40||-	=40||-	=40||-	=40||-	=40||-	=40||-	=40||-	=40||-	=40||-	=40||-	=40||-	=40||-
!	!	!	!	!	!	!LO:MO:null:mod=*M3/1	!	!	!LO:MO:null:mod=*3/1	!	!	!	!	!	!
*M3/2	*	*M3/1	*	*M3/1	*	*	*	*	*	*	*	*M3/1	*	*	*
*	*	*met(3/1)	*	*met(3/2)	*	*	*	*	*	*	*	*met(3/2)	*	*	*
!	!	!LO:TX:a:t=31.:mod=	!	!LO:TX:b:t=30.:mod=	!	!	!	!	!	!	!	!	!	!	!
2FF/	.	00.r	.	00.r	.	0.ryy	.	.	0.ryy	.	.	2a\	O	O	.
2GG/	.	.	.	.	.	.	.	.	.	.	.	2g\	so-	so-	.
2AA,</	.	.	.	.	.	.	.	.	.	.	.	2e\	-nent	-nent	.
2.D/	.	.	.	.	.	.	.	.	.	.	.	2.f\	me-	me-	.
4C/	.	.	.	.	.	.	.	.	.	.	.	4e\	-li-	-li-	.
!LO:TX:t=P:problem:kreska pseudotaktowa	!	!	!	!	!	!	!	!	!	!	!	!	!	!	!
2BB-X/	.	.	.	.	.	.	.	.	.	.	.	2d\	-cis	-cis	.
=41-	=41-	=41-	=41-	=41-	=41-	=41-	=41-	=41-	=41-	=41-	=41-	=41-	=41-	=41-	=41-
1GG	-	.	.	.	.	0.ryy	.	.	0.ryy	.	.	2.e\	ae-	ae-	.
.	.	.	.	.	.	.	.	.	.	.	.	4d\	-the-	-the-	.
2AA/	.	.	.	.	.	.	.	.	.	.	.	2c#X/	-ra	-ra	.
!LO:TX:t=P:problem:kreska pseudotaktowa	!	!	!	!	!	!	!	!	!	!	!	!	!	!	!
1.D	#	.	.	.	.	.	.	.	.	.	.	2.d\	vo-	vo-	.
.	.	.	.	.	.	.	.	.	.	.	.	4d\	-ci-	-ci-	.
.	.	.	.	.	.	.	.	.	.	.	.	2d\	-bus	-bus	.
*	*	*	*	*	*	*	*	*	*	*	*	*custos:f	*	*	*
!	!	!	!	!	!	!	!	!	!	!	!	!LO:LB:g=original	!	!	!
=42-	=42-	=42-	=42-	=42-	=42-	=42-	=42-	=42-	=42-	=42-	=42-	=42-	=42-	=42-	=42-
2D/	#	00.r	.	00.r	.	0.ryy	.	.	0.ryy	.	.	(4f\	cho-	cho-	.
.	.	.	.	.	.	.	.	.	.	.	.	4a\)	.	.	.
2C/	.	.	.	.	.	.	.	.	.	.	.	(4g\	-ris	-ris	.
!	!	!	!	!	!	!	!	!	!	!	!	!LO:TX:a:t=P:problem:♭ above	!	!	!
.	.	.	.	.	.	.	.	.	.	.	.	4b-X\)i	.	.	.
2AA,</	6|	.	.	.	.	.	.	.	.	.	.	(4a\	An-	An-	.
!	!	!	!	!	!	!	!	!	!	!	!	!LO:TX:t=P:problem:kreska pseudotaktowa	!	!	!
.	.	.	.	.	.	.	.	.	.	.	.	4cc\)	.	.	.
!LO:TX:t=P:problem:kreska pseudotaktowa	!	!	!	!	!	!	!	!	!	!	!	!	!	!	!
1.GG	-	.	.	.	.	.	.	.	.	.	.	2.b-X\	-ge-	-ge-	.
.	.	.	.	.	.	.	.	.	.	.	.	4b-\	-li-	-li-	.
!	!	!	!	!	!	!	!	!	!	!	!	!LO:TX:t=P:problem:kreska pseudotaktowa	!	!	!
.	.	.	.	.	.	.	.	.	.	.	.	2b-\	-cis	-cis	.
=43-	=43-	=43-	=43-	=43-	=43-	=43-	=43-	=43-	=43-	=43-	=43-	=43-	=43-	=43-	=43-
1.D	#	.	.	.	.	0.ryy	.	.	0.ryy	.	.	2.f#X\	jŭn-	jun-	.
.	.	.	.	.	.	.	.	.	.	.	.	4e\	-gi-	-gi-	.
!	!	!	!	!	!	!	!	!	!	!	!	!LO:TX:t=P:problem:kreska pseudotaktowa	!	!	!
.	.	.	.	.	.	.	.	.	.	.	.	2d\	-te	-te,	.
2.BB-X/	.	.	.	.	.	.	.	.	.	.	.	2.dd\	jun-	jun-	.
4AA/	.	.	.	.	.	.	.	.	.	.	.	4cc\	-gi-	-gi-	.
!	!	!	!	!	!	!	!	!	!	!	!	!LO:TX:t=P:problem:kreska pseudotaktowa	!	!	!
2GG/	-	.	.	.	.	.	.	.	.	.	.	2b-X\	-te	-te	.
*custos:C	*	*	*	*	*	*	*	*	*	*	*	*	*	*	*
!LO:LB:g=original	!	!	!	!	!	!	!	!	!	!	!	!	!	!	!
=44-	=44-	=44-	=44-	=44-	=44-	=44-	=44-	=44-	=44-	=44-	=44-	=44-	=44-	=44-	=44-
2C/	-7r 5	00.r	.	00.r	.	0.ryy	.	.	0.ryy	.	.	(4cc\	car-	car-	.
.	.	.	.	.	.	.	.	.	.	.	.	4b-X\)	.	.	.
2D/	4	.	.	.	.	.	.	.	.	.	.	2.a\	.	.	.
!LO:TX:t=P:problem:kreska pseudotaktowa	!	!	!	!	!	!	!	!	!	!	!	!	!	!	!
2DD/	#	.	.	.	.	.	.	.	.	.	.	.	.	.	.
.	.	.	.	.	.	.	.	.	.	.	.	4g\	-mi-	-mi-	.
1.GG,<	.	.	.	.	.	.	.	.	.	.	.	1g	-na	-na.	.
.	.	.	.	.	.	.	.	.	.	.	.	2r	.	.	.
=45-	=45-	=45-	=45-	=45-	=45-	=45-	=45-	=45-	=45-	=45-	=45-	=45-	=45-	=45-	=45-
2GG/	.	.	.	.	.	0.ryy	.	.	0.ryy	.	.	(4B/	cho-	Cho-	.
.	.	.	.	.	.	.	.	.	.	.	.	4d/)	.	.	.
2AA/	6	.	.	.	.	.	.	.	.	.	.	(4c\	-ris	-ris	.
.	.	.	.	.	.	.	.	.	.	.	.	4e\)	.	.	.
2BB,</	6	.	.	.	.	.	.	.	.	.	.	(4d\	An-	An-	.
.	.	.	.	.	.	.	.	.	.	.	.	4f\)	.	.	.
*	*	*	*	*	*	*	*	*	*	*	*	*custos:e	*	*	*
!LO:TX:t=P:problem:kreska pseudotaktowa	!	!	!	!	!	!	!	!	!	!	!	!	!	!	!
!	!	!	!	!	!	!	!	!	!	!	!	!LO:PB:g=original	!	!	!
1.C	.	.	.	.	.	.	.	.	.	.	.	2.e\	-ge-	-ge-	.
.	.	.	.	.	.	.	.	.	.	.	.	4d\	-li-	-li-	.
!	!	!	!	!	!	!	!	!	!	!	!	!LO:TX:t=P:problem:kreska pseudotaktowa	!	!	!
.	.	.	.	.	.	.	.	.	.	.	.	2c/	-cis	-cis,	.
=46-	=46-	=46-	=46-	=46-	=46-	=46-	=46-	=46-	=46-	=46-	=46-	=46-	=46-	=46-	=46-
2C/	.	00.r	.	00.r	.	0.ryy	.	.	0.ryy	.	.	(4e\	cho-	cho-	.
.	.	.	.	.	.	.	.	.	.	.	.	4g\)	.	.	.
2D/	-6r	.	.	.	.	.	.	.	.	.	.	(4f\	-ris	-ris	.
.	.	.	.	.	.	.	.	.	.	.	.	4a\)	.	.	.
2E,<\	.	.	.	.	.	.	.	.	.	.	.	4g\	an-	An-	.
!	!	!	!	!	!	!	!	!	!	!	!	!LO:TX:t=P:problem:kreska pseudotaktowa	!	!	!
!	!	!	!	!	!	!	!	!	!	!	!	!LO:TX:a:t=P:problem:♭ above	!	!	!
.	.	.	.	.	.	.	.	.	.	.	.	4b-X\i	.	.	.
1.F	.	.	.	.	.	.	.	.	.	.	.	2.a\	-ge-	-ge-	.
.	.	.	.	.	.	.	.	.	.	.	.	4g\	-li-	-li-	.
.	.	.	.	.	.	.	.	.	.	.	.	2f\	-cis	-cis,	.
=47-	=47-	=47-	=47-	=47-	=47-	=47-	=47-	=47-	=47-	=47-	=47-	=47-	=47-	=47-	=47-
!LO:TX:t=P:problem:kreska pseudotaktowa	!	!	!	!	!	!	!	!	!	!	!	!	!	!	!
1.C	.	.	.	.	.	0.ryy	.	.	0.ryy	.	.	2.e\	jŭn-	jun-	.
.	.	.	.	.	.	.	.	.	.	.	.	4d\	-gi-	-gi-	.
!	!	!	!	!	!	!	!	!	!	!	!	!LO:TX:t=P:problem:kreska pseudotaktowa	!	!	!
.	.	.	.	.	.	.	.	.	.	.	.	2c/	-te	-te,	.
1AA	6	.	.	.	.	.	.	.	.	.	.	2.cc\	jŭn-	jun-	.
!	!	!	!	!	!	!	!	!	!	!	!	!LO:TX:a:t=P:problem:♭ above	!	!	!
.	.	.	.	.	.	.	.	.	.	.	.	4b-X\i	-gi-	-gi-	.
2D,</	.	.	.	.	.	.	.	.	.	.	.	2a\	-te	-te	.
=48-	=48-	=48-	=48-	=48-	=48-	=48-	=48-	=48-	=48-	=48-	=48-	=48-	=48-	=48-	=48-
2BB-X/	.	00.r	.	00.r	.	0.ryy	.	.	0.ryy	.	.	(4b-X\	car-	car-	.
.	.	.	.	.	.	.	.	.	.	.	.	4dd\)	.	.	.
!LO:TX:t=P:problem:kreska pseudotaktowa	!	!	!	!	!	!	!	!	!	!	!	!	!	!	!
1C	4:3	.	.	.	.	.	.	.	.	.	.	2.g\	.	.	.
.	.	.	.	.	.	.	.	.	.	.	.	4f\	-mi-	-mi-	.
1.FF,<	.	.	.	.	.	.	.	.	.	.	.	1f	-na	-na,	.
.	.	.	.	.	.	.	.	.	.	.	.	2r	.	.	.
=49-	=49-	=49-	=49-	=49-	=49-	=49-	=49-	=49-	=49-	=49-	=49-	=49-	=49-	=49-	=49-
!LO:TX:t=P:problem:kreska pseudotaktowa	!	!	!	!	!	!	!	!	!	!	!	!	!	!	!
1.FF	.	.	.	.	.	0.ryy	.	.	0.ryy	.	.	2.a\	jun-	jun-	.
.	.	.	.	.	.	.	.	.	.	.	.	4g\	-gi-	-gi-	.
.	.	.	.	.	.	.	.	.	.	.	.	2f\	-te	-te	.
*	*	*	*	*	*	*	*	*	*	*	*	*custos:e	*	*	*
!	!	!	!	!	!	!	!	!	!	!	!	!LO:LB:g=original	!	!	!
1.C	.	.	.	.	.	.	.	.	.	.	.	2.e\	gau-	gau-	.
.	.	.	.	.	.	.	.	.	.	.	.	4f\	-di-	-di-	.
!	!	!	!	!	!	!	!	!	!	!	!	!LO:TX:t=P:problem:kreska pseudotaktowa	!	!	!
.	.	.	.	.	.	.	.	.	.	.	.	2g\	-a	-a,	.
=50-	=50-	=50-	=50-	=50-	=50-	=50-	=50-	=50-	=50-	=50-	=50-	=50-	=50-	=50-	=50-
!LO:TX:t=P:problem:kreska pseudotaktowa	!	!	!	!	!	!	!	!	!	!	!	!	!	!	!
1.D	.	00.r	.	00.r	.	0.ryy	.	.	0.ryy	.	.	2.f\	jun-	jun-	.
.	.	.	.	.	.	.	.	.	.	.	.	4e\	-gi-	-gi-	.
.	.	.	.	.	.	.	.	.	.	.	.	2d\	-te	-te	.
1.AA	#	.	.	.	.	.	.	.	.	.	.	2.c#X/	ju-	ju-	.
.	.	.	.	.	.	.	.	.	.	.	.	4B/	-bi-	-bi-	.
!	!	!	!	!	!	!	!	!	!	!	!	!LO:TX:t=P:problem:kreska pseudotaktowa	!	!	!
.	.	.	.	.	.	.	.	.	.	.	.	2A/	-la	-la,	.
=51-	=51-	=51-	=51-	=51-	=51-	=51-	=51-	=51-	=51-	=51-	=51-	=51-	=51-	=51-	=51-
2AA/	.	.	.	.	.	0.ryy	.	.	0.ryy	.	.	(4c#X\	jun-	jun-	.
.	.	.	.	.	.	.	.	.	.	.	.	4e\)	.	.	.
2BB/	.	.	.	.	.	.	.	.	.	.	.	(4d\	-gi-	-gi-	.
.	.	.	.	.	.	.	.	.	.	.	.	4f\)	.	.	.
2C#X/	.	.	.	.	.	.	.	.	.	.	.	(4e\	-te	-te	.
!	!	!	!	!	!	!	!	!	!	!	!	!LO:TX:t=P:problem:kreska pseudotaktowa	!	!	!
.	.	.	.	.	.	.	.	.	.	.	.	4g\)	.	.	.
*custos:D	*	*	*	*	*	*	*	*	*	*	*	*	*	*	*
!LO:LB:g=original	!	!	!	!	!	!	!	!	!	!	!	!	!	!	!
1.D	-	.	.	.	.	.	.	.	.	.	.	4f\	can-	can-	.
.	.	.	.	.	.	.	.	.	.	.	.	4e\	.	.	.
.	.	.	.	.	.	.	.	.	.	.	.	4f\	.	.	.
.	.	.	.	.	.	.	.	.	.	.	.	4g\	.	.	.
.	.	.	.	.	.	.	.	.	.	.	.	4a\	.	.	.
.	.	.	.	.	.	.	.	.	.	.	.	4b\	.	.	.
=52-	=52-	=52-	=52-	=52-	=52-	=52-	=52-	=52-	=52-	=52-	=52-	=52-	=52-	=52-	=52-
1.AA	6	00.r	.	00.r	.	0.ryy	.	.	0.ryy	.	.	4cc\	.	.	.
.	.	.	.	.	.	.	.	.	.	.	.	4b-X\	.	.	.
.	.	.	.	.	.	.	.	.	.	.	.	4cc\	.	.	.
.	.	.	.	.	.	.	.	.	.	.	.	4f\	.	.	.
.	.	.	.	.	.	.	.	.	.	.	.	4e\	.	.	.
!	!	!	!	!	!	!	!	!	!	!	!	!LO:TX:t=P:problem:kreska pseudotaktowa	!	!	!
.	.	.	.	.	.	.	.	.	.	.	.	4f\	.	.	.
1.BB-X	6	.	.	.	.	.	.	.	.	.	.	4d\	.	.	.
.	.	.	.	.	.	.	.	.	.	.	.	4c\	.	.	.
.	.	.	.	.	.	.	.	.	.	.	.	4d\	.	.	.
.	.	.	.	.	.	.	.	.	.	.	.	4b-X\	.	.	.
.	.	.	.	.	.	.	.	.	.	.	.	4a\	.	.	.
.	.	.	.	.	.	.	.	.	.	.	.	4b-\	.	.	.
*	*	*	*	*	*	*	*	*	*	*	*	*custos:g	*	*	*
!	!	!	!	!	!	!	!	!	!	!	!	!LO:LB:g=original	!	!	!
=53-	=53-	=53-	=53-	=53-	=53-	=53-	=53-	=53-	=53-	=53-	=53-	=53-	=53-	=53-	=53-
!LO:TX:t=P:problem:kreska pseudotaktowa	!	!	!	!	!	!	!	!	!	!	!	!	!	!	!
1.C	.	.	.	.	.	0.ryy	.	.	0.ryy	.	.	4g\	.	.	.
.	.	.	.	.	.	.	.	.	.	.	.	4f\	.	.	.
.	.	.	.	.	.	.	.	.	.	.	.	4g\	.	.	.
.	.	.	.	.	.	.	.	.	.	.	.	4c/	.	.	.
!	!	!	!	!	!	!	!	!	!	!	!	!LO:SIC:v:s=4B-/	!	!	!
.	.	.	.	.	.	.	.	.	.	.	.	4B/	.	.	.
!	!	!	!	!	!	!	!	!	!	!	!	!LO:TX:t=P:problem:kreska pseudotaktowa	!	!	!
.	.	.	.	.	.	.	.	.	.	.	.	4c/	.	.	.
1.F	.	.	.	.	.	.	.	.	.	.	.	4A/	.	.	.
!	!	!	!	!	!	!	!	!	!	!	!	!LO:SIC:v:s=4B-/	!	!	!
.	.	.	.	.	.	.	.	.	.	.	.	4B/	.	.	.
.	.	.	.	.	.	.	.	.	.	.	.	4c/	.	.	.
.	.	.	.	.	.	.	.	.	.	.	.	4d\	.	.	.
.	.	.	.	.	.	.	.	.	.	.	.	4e\	.	.	.
.	.	.	.	.	.	.	.	.	.	.	.	4f\	.	.	.
=54-	=54-	=54-	=54-	=54-	=54-	=54-	=54-	=54-	=54-	=54-	=54-	=54-	=54-	=54-	=54-
1E	6	0.r	.	0.r	.	0.ryy	.	.	0.ryy	.	.	4g\	.	.	.
.	.	.	.	.	.	.	.	.	.	.	.	4f\	.	.	.
.	.	.	.	.	.	.	.	.	.	.	.	4g\	.	.	.
.	.	.	.	.	.	.	.	.	.	.	.	4e\	.	.	.
[2F,<\	.	.	.	.	.	.	.	.	.	.	.	4a\	.	.	.
.	.	.	.	.	.	.	.	.	.	.	.	4cc\	.	.	.
2F\]	.	.	.	.	.	.	.	.	.	.	.	4f\	.	.	.
.	.	.	.	.	.	.	.	.	.	.	.	4a\	.	.	.
!LO:TX:t=P:problem:kreska pseudotaktowa	!	!	!	!	!	!	!	!	!	!	!	!	!	!	!
1G	4:3	.	.	.	.	.	.	.	.	.	.	2.d\	.	.	.
.	.	.	.	.	.	.	.	.	.	.	.	4c/	-ti-	-ti-	.
*	*	*	*	*custos:cc	*	*	*	*	*	*	*	*	*	*	*
!	!	!	!	!LO:LB:g=original	!	!	!	!	!	!	!	!	!	!	!
=55-	=55-	=55-	=55-	=55-	=55-	=55-	=55-	=55-	=55-	=55-	=55-	=55-	=55-	=55-	=55-
!!LO:TX:a:B:t=:mod=Sinfonia
!	!	!	!	!	!	!LO:TX:a:t=Sinfo\ntac&colon;:mod=	!	!	!LO:TX:a:t=Sinfonia\nTacet:mod=	!	!	!	!	!	!
1.C,<	.	1.r	.	4cc\	.	0.ryy	.	.	0.ryy	.	.	2c/	-ca	-ca.	.
.	.	.	.	4dd\	.	.	.	.	.	.	.	.	.	.	.
.	.	.	.	4ee\	.	.	.	.	.	.	.	2r	.	.	.
.	.	.	.	4ff\	.	.	.	.	.	.	.	.	.	.	.
.	.	.	.	4gg\	.	.	.	.	.	.	.	2r	.	.	.
.	.	.	.	4aa,<\	.	.	.	.	.	.	.	.	.	.	.
2GG/	-	4g/	.	2.bb-X\	.	.	.	.	.	.	.	00.r	.	.	.
.	.	4a/	.	.	.	.	.	.	.	.	.	.	.	.	.
!	!	!LO:SIC:v:s=4b-/	!	!	!	!	!	!	!	!	!	!	!	!	!
1G,<	.	4b/	.	.	.	.	.	.	.	.	.	.	.	.	.
.	.	4cc\	.	4bb-\	.	.	.	.	.	.	.	.	.	.	.
.	.	4dd\	.	4b-X/	.	.	.	.	.	.	.	.	.	.	.
.	.	4ee,<\	.	4cc,<\	.	.	.	.	.	.	.	.	.	.	.
=56-	=56-	=56-	=56-	=56-	=56-	=56-	=56-	=56-	=56-	=56-	=56-	=56-	=56-	=56-	=56-
!LO:TX:t=P:problem:kreska pseudotaktowa	!	!	!	!	!	!	!	!	!	!	!	!	!	!	!
1.D	.	4ff\	.	4dd\	.	0.ryy	.	.	0.ryy	.	.	.	.	.	.
.	.	4ee\	.	4cc\	.	.	.	.	.	.	.	.	.	.	.
.	.	4ff\	.	4dd\	.	.	.	.	.	.	.	.	.	.	.
.	.	4gg\	.	4ee\	.	.	.	.	.	.	.	.	.	.	.
.	.	4aa\	.	4ff\	.	.	.	.	.	.	.	.	.	.	.
!	!	!LO:SIC:v:s=4bb-,\	!	!	!	!	!	!	!	!	!	!	!	!	!
.	.	4bb\	.	4gg,<\	.	.	.	.	.	.	.	.	.	.	.
2AA/	.	2ccc\	.	2aa\	.	.	.	.	.	.	.	.	.	.	.
2BB-X/	.	4bb-X\	.	4gg\	.	.	.	.	.	.	.	.	.	.	.
.	.	4aa\	.	4ff\	.	.	.	.	.	.	.	.	.	.	.
2C,</	.	4gg\	.	4ee\	.	.	.	.	.	.	.	.	.	.	.
.	.	4aa\	.	4ff#X\	.	.	.	.	.	.	.	.	.	.	.
=57-	=57-	=57-	=57-	=57-	=57-	=57-	=57-	=57-	=57-	=57-	=57-	=57-	=57-	=57-	=57-
2GG/	-	2bb-X\	.	2gg\	.	0.ryy	.	.	0.ryy	.	.	.	.	.	.
2C/	.	2.aa\	.	2.gg\	.	.	.	.	.	.	.	.	.	.	.
!LO:TX:t=P:problem:kreska pseudotaktowa	!	!	!	!	!	!	!	!	!	!	!	!	!	!	!
2D/	#	.	.	.	.	.	.	.	.	.	.	.	.	.	.
!	!	!LO:SIC:s=4aa,\	!	!	!	!	!	!	!	!	!	!	!	!	!
.	.	4aa\	.	4ff#X,<\	.	.	.	.	.	.	.	.	.	.	.
1.G	.	1gg	.	4gg\	.	.	.	.	.	.	.	00.r	.	.	.
.	.	.	.	4g/	.	.	.	.	.	.	.	.	.	.	.
.	.	.	.	4b-X/	.	.	.	.	.	.	.	.	.	.	.
.	.	.	.	4cc\	.	.	.	.	.	.	.	.	.	.	.
.	.	2r	.	4dd\	.	.	.	.	.	.	.	.	.	.	.
.	.	.	.	4ee,<\	.	.	.	.	.	.	.	.	.	.	.
=58-	=58-	=58-	=58-	=58-	=58-	=58-	=58-	=58-	=58-	=58-	=58-	=58-	=58-	=58-	=58-
!LO:TX:t=P:problem:kreska pseudotaktowa	!	!	!	!	!	!	!	!	!	!	!	!	!	!	!
1.D	7:6|	4f/	.	2ff\	.	0.ryy	.	.	0.ryy	.	.	.	.	.	.
.	.	4d/	.	.	.	.	.	.	.	.	.	.	.	.	.
.	.	4f/	.	2.ff\	.	.	.	.	.	.	.	.	.	.	.
.	.	4g/	.	.	.	.	.	.	.	.	.	.	.	.	.
.	.	4a/	.	.	.	.	.	.	.	.	.	.	.	.	.
.	.	4b,</	.	4ff,<\	.	.	.	.	.	.	.	.	.	.	.
1.C,<	.	4cc\	.	4ee\	.	.	.	.	.	.	.	.	.	.	.
.	.	4dd\	.	4ff\	.	.	.	.	.	.	.	.	.	.	.
.	.	4ee\	.	4gg\	.	.	.	.	.	.	.	.	.	.	.
.	.	4cc\	.	4ee\	.	.	.	.	.	.	.	.	.	.	.
.	.	4dd\	.	4ff\	.	.	.	.	.	.	.	.	.	.	.
!	!	!	!	!LO:SIC:s=4gg,\	!	!	!	!	!	!	!	!	!	!	!
.	.	4ee,<\	.	4gg\	.	.	.	.	.	.	.	.	.	.	.
*	*	*	*	*custos:aa	*	*	*	*	*	*	*	*	*	*	*
!	!	!	!	!LO:LB:g=original	!	!	!	!	!	!	!	!	!	!	!
=59-	=59-	=59-	=59-	=59-	=59-	=59-	=59-	=59-	=59-	=59-	=59-	=59-	=59-	=59-	=59-
1FF	.	2.ff\	.	2.aa\	.	0.ryy	.	.	0.ryy	.	.	.	.	.	.
.	.	4ee\	.	4gg\	.	.	.	.	.	.	.	.	.	.	.
2AA,</	.	4dd\	.	4ff\	.	.	.	.	.	.	.	.	.	.	.
!	!	!LO:SIC:s=4cc,\	!	!	!	!	!	!	!	!	!	!	!	!	!
.	.	4cc\	.	4ee,<\	.	.	.	.	.	.	.	.	.	.	.
*	*	*custos:cc	*	*	*	*	*	*	*	*	*	*	*	*	*
!	!	!LO:LB:g=original	!	!	!	!	!	!	!	!	!	!	!	!	!
2FF/	6 5	2cc\	.	2dd\	.	.	.	.	.	.	.	00.r	.	.	.
1GG	4:3	2.cc\	.	2.dd\	.	.	.	.	.	.	.	.	.	.	.
!	!	!LO:N:acc=#	!	!	!	!	!	!	!	!	!	!	!	!	!
!	!	!LO:SIC:s=4bn,/	!	!	!	!	!	!	!	!	!	!	!	!	!
.	.	4bn/	.	4dd,<\	.	.	.	.	.	.	.	.	.	.	.
*custos:C	*	*	*	*	*	*	*	*	*	*	*	*	*	*	*
!LO:LB:g=original	!	!	!	!	!	!	!	!	!	!	!	!	!	!	!
=60-	=60-	=60-	=60-	=60-	=60-	=60-	=60-	=60-	=60-	=60-	=60-	=60-	=60-	=60-	=60-
2.C/	.	1.cc	.	2.ee\	.	0.ryy	.	.	0.ryy	.	.	.	.	.	.
4D/	.	.	.	4ff\	.	.	.	.	.	.	.	.	.	.	.
2E,<\	.	.	.	2gg\	.	.	.	.	.	.	.	.	.	.	.
!	!	!	!	!	!LO:MO:null:mod=!LO&colon;DY&colon;ed=brack	!	!	!	!	!	!	!	!	!	!
!	!	!	!	!	!	!	!	!	!	!	!	!	!	!	!
!	!	!	!LO:DY:a:t=pian	!	!LO:MO:null:mod=p	!	!	!	!	!	!	!	!	!	!
2F\	.	2cc\	p	2aa\	.	.	.	.	.	.	.	.	.	.	.
!LO:TX:t=P:problem:kreska pseudotaktowa	!	!	!	!	!	!	!	!	!	!	!	!	!	!	!
1G	4:3	2.cc\	.	1dd	.	.	.	.	.	.	.	.	.	.	.
!	!	!LO:TX:b:t=P:problem:# below	!	!	!	!	!	!	!	!	!	!	!	!	!
!	!	!LO:N:acc=#	!	!	!	!	!	!	!	!	!	!	!	!	!
.	.	4bn/	.	.	.	.	.	.	.	.	.	.	.	.	.
=61-	=61-	=61-	=61-	=61-	=61-	=61-	=61-	=61-	=61-	=61-	=61-	=61-	=61-	=61-	=61-
1.C	.	1.cc	.	1.ee	.	1.ryy	.	.	1.ryy	.	.	.	.	.	.
!	!	!	!	!	!	!LO:LB:g=original	!	!	!	!	!	!	!	!	!
=62||-	=62||-	=62||-	=62||-	=62||-	=62||-	=62||-	=62||-	=62||-	=62||-	=62||-	=62||-	=62||-	=62||-	=62||-	=62||-
*M2/1	*	*M2/1	*	*M2/1	*	*M2/1	*	*	*M2/1	*	*	*M2/1	*	*	*
*met(C)	*	*met(C|)	*	*met(C)	*	*met(C)	*	*	*met(C)	*	*	*	*	*	*
!LO:TX:b:i:t=Ten. sol&colon;:mod=	!	!	!	!LO:TX:a:t=7.:mod=	!	!	!	!	!	!	!	!LO:TX:a:t=Et ego\ntacet:mod=	!	!	!
!	!	!	!	!LO:TX:t-P:problem: cyfra 7 oznacająca pauzy przekreślona i poniżej ołówkiem dopisana cyfra 8	!	!	!	!	!	!	!	!	!	!	!
1C	.	00r	.	00r	.	00r	.	.	4r	.	.	0ryy	.	.	.
.	.	.	.	.	.	.	.	.	8r	.	.	.	.	.	.
.	.	.	.	.	.	.	.	.	8G/	Et	Et	.	.	.	.
.	.	.	.	.	.	.	.	.	8E/	e-	e-	.	.	.	.
.	.	.	.	.	.	.	.	.	8E/	-go	-go	.	.	.	.
.	.	.	.	.	.	.	.	.	8r	.	.	.	.	.	.
!	!	!	!	!	!	!	!	!	!LO:TX:t=P:problem:kreska pseudotaktowa	!	!	!	!	!	!
.	.	.	.	.	.	.	.	.	8c\	et	et	.	.	.	.
2F\	.	.	.	.	.	.	.	.	8A/	e-	e-	.	.	.	.
.	.	.	.	.	.	.	.	.	8A/	-go	-go	.	.	.	.
.	.	.	.	.	.	.	.	.	8B\	quo	quo	.	.	.	.
.	.	.	.	.	.	.	.	.	8c\	prae-	prae-	.	.	.	.
*	*	*	*	*	*	*	*	*	*custos:G	*	*	*	*	*	*
!	!	!	!	!	!	!	!	!	!LO:LB:g=original	!	!	!	!	!	!
2E,<\	6	.	.	.	.	.	.	.	8.G/	-co-	-co-	.	.	.	.
.	.	.	.	.	.	.	.	.	16G/	-ni-	-ni-	.	.	.	.
.	.	.	.	.	.	.	.	.	8.G/	-o	-o	.	.	.	.
!	!	!	!	!	!	!	!	!	!LO:TX:t=P:problem:kreska pseudotaktowa	!	!	!	!	!	!
.	.	.	.	.	.	.	.	.	16A/	laŭ-	lau-	.	.	.	.
=63-	=63-	=63-	=63-	=63-	=63-	=63-	=63-	=63-	=63-	=63-	=63-	=63-	=63-	=63-	=63-
2D/	7:6	.	.	.	.	.	.	.	16F/LL	-da-	-da-	0ryy	.	.	.
.	.	.	.	.	.	.	.	.	16E/	.	.	.	.	.	.
.	.	.	.	.	.	.	.	.	16F/	.	.	.	.	.	.
.	.	.	.	.	.	.	.	.	16G/JJ	.	.	.	.	.	.
.	.	.	.	.	.	.	.	.	8.F/	.	.	.	.	.	.
.	.	.	.	.	.	.	.	.	16E/	-bo	-bo	.	.	.	.
!LO:TX:t=P:problem:kreska pseudotaktowa	!	!	!	!	!	!	!	!	!LO:TX:t=P:problem:kreska pseudotaktowa	!	!	!	!	!	!
2C/	.	.	.	.	.	.	.	.	2E/	te,	te,	.	.	.	.
[2C/	6| 4 2	.	.	.	.	.	.	.	8r	.	.	.	.	.	.
.	.	.	.	.	.	.	.	.	8c\	que(m)	quem	.	.	.	.
.	.	.	.	.	.	.	.	.	8.A/	ad-	ad-	.	.	.	.
.	.	.	.	.	.	.	.	.	16G/	-mi-	-mi-	.	.	.	.
4C/]	.	.	.	.	.	.	.	.	8F#X/	-ra(n)-	-ran-	.	.	.	.
.	.	.	.	.	.	.	.	.	8D/	-tur	-tur	.	.	.	.
4BB-X/	.	.	.	.	.	.	.	.	8G/L	an-	An-	.	.	.	.
.	.	.	.	.	.	.	.	.	16A/L	.	.	.	.	.	.
!	!	!	!	!	!	!	!	!	!LO:TX:t=P:problem:kreska pseudotaktowa	!	!	!	!	!	!
.	.	.	.	.	.	.	.	.	16B/JJ	.	.	.	.	.	.
=64-	=64-	=64-	=64-	=64-	=64-	=64-	=64-	=64-	=64-	=64-	=64-	=64-	=64-	=64-	=64-
2AA/	.	0r	.	0r	.	0r	.	.	4.c\	.	.	0ryy	.	.	.
.	.	.	.	.	.	.	.	.	8B-X\	-ge-	-ge-	.	.	.	.
!LO:TX:t=P:problem:kreska pseudotaktowa	!	!	!	!	!	!	!	!	!	!	!	!	!	!	!
2GG/	.	.	.	.	.	.	.	.	8B-\	-li	-li,	.	.	.	.
.	.	.	.	.	.	.	.	.	8d\	quem	quem	.	.	.	.
.	.	.	.	.	.	.	.	.	8e-X\	ad-	ad-	.	.	.	.
.	.	.	.	.	.	.	.	.	8f\	-mi-	-mi-	.	.	.	.
2C/	.	.	.	.	.	.	.	.	4.e-X\	-ran-	-ran-	.	.	.	.
.	.	.	.	.	.	.	.	.	8A/	-tur	-tur	.	.	.	.
!	!	!	!	!	!	!	!	!	!LO:LB:g=original	!	!	!	!	!	!
2D/	4:3	.	.	.	.	.	.	.	4.A/	an-	An-	.	.	.	.
.	.	.	.	.	.	.	.	.	8G/	-ge-	-ge-	.	.	.	.
=65-	=65-	=65-	=65-	=65-	=65-	=65-	=65-	=65-	=65-	=65-	=65-	=65-	=65-	=65-	=65-
!LO:TX:t=P:problem: verte sit przekreślone	!	!	!	!	!	!	!	!	!	!	!	!	!	!	!
!LO:TX:b:t=Verte Sit.:mod=	!	!	!	!	!	!	!	!	!	!	!	!	!	!	!
!LO:TX:t=P:problem:kreska pseudotaktowa	!	!	!	!	!	!	!	!	!	!	!	!	!	!	!
1GG	.	1r	.	1r	.	1r	.	.	1G	-li	-li.	1ryy	.	.	.
*custos:G	*	*	*	*	*	*	*	*	*	*	*	*	*	*	*
!LO:PB:g=original	!	!	!	!	!	!	!	!	!	!	!	!	!	!	!
=66||-	=66||-	=66||-	=66||-	=66||-	=66||-	=66||-	=66||-	=66||-	=66||-	=66||-	=66||-	=66||-	=66||-	=66||-	=66||-
!	!	!	!	!	!	!	!	!	!	!	!	!LO:MO:null:mod=*3/1	!	!	!
*M3/1	*	*M3/1	*	*M3/1	*	*M3/1	*	*	*M3/1	*	*	*	*	*	*
*met(3/2)	*	*met(3/2)	*	*met(3/2)	*	*met(3/2)	*	*	*met(3/2)	*	*	*	*	*	*
!	!	!LO:TX:a:t=27.:mod=	!	!LO:TX:a:t=28.:mod=	!	!	!	!	!	!	!	!	!	!	!
2G\	-	00.r	.	00.r	.	2G\	O	O	2B-X\	o	O	0.ryy	.	.	.
2F\	.	.	.	.	.	2F\	so-	so-	2A/	so-	so-	.	.	.	.
2E\	.	.	.	.	.	2E\	-nent	-nent	2G/	-nent	-nent	.	.	.	.
1.D	-	.	.	.	.	2.D/	me-	me-	2.F/	me-	me-	.	.	.	.
.	.	.	.	.	.	4C#X/	-li-	-li-	4E/	-li-	-li-	.	.	.	.
!	!	!	!	!	!	!LO:TX:t=P:problem:kreska pseudotaktowa	!	!	!	!	!	!	!	!	!
.	.	.	.	.	.	2D/	-cis	-cis	2F/	-cis	-cis	.	.	.	.
=67-	=67-	=67-	=67-	=67-	=67-	=67-	=67-	=67-	=67-	=67-	=67-	=67-	=67-	=67-	=67-
1GG	.	.	.	.	.	2.GG/	ae-	ae-	2.G/	ae-	ae-	0.ryy	.	.	.
.	.	.	.	.	.	4GG/	-the-	-the-	4F/	-the-	-the-	.	.	.	.
!LO:TX:t=P:problem:kreska pseudotaktowa	!	!	!	!	!	!	!	!	!	!	!	!	!	!	!
2AA/	#	.	.	.	.	2AA/	-ra	-ra	2E/	-ra	-ra	.	.	.	.
1.D,<	-	.	.	.	.	2.D/	vo-	vo-	2.F/	vo-	vo-	.	.	.	.
.	.	.	.	.	.	4D/	-ci-	-ci-	4F/	-ci-	-ci-	.	.	.	.
.	.	.	.	.	.	2D/	-bus	-bus,	2F/	-bus	-bus,	.	.	.	.
=68-	=68-	=68-	=68-	=68-	=68-	=68-	=68-	=68-	=68-	=68-	=68-	=68-	=68-	=68-	=68-
2D/	.	00.r	.	00.r	.	2D/	ô	o	2f\	o	o	0.ryy	.	.	.
2C/	.	.	.	.	.	2C/	so-	so-	2e\	so-	so-	.	.	.	.
2BB-X,</	.	.	.	.	.	2BB-X/	-nent	-nent	2d\	-nent	-nent	.	.	.	.
2.AA/	.	.	.	.	.	2.AA/	me-	me-	2.c\	me-	me-	.	.	.	.
4GG/	.	.	.	.	.	4GG/	-li-	-li-	4B\	-li-	-li-	.	.	.	.
!LO:TX:t=P:problem:kreska pseudotaktowa	!	!	!	!	!	!	!	!	!	!	!	!	!	!	!
2FF/	.	.	.	.	.	2FF/	-cis	-cis	2A\	-cis	-cis	.	.	.	.
=69-	=69-	=69-	=69-	=69-	=69-	=69-	=69-	=69-	=69-	=69-	=69-	=69-	=69-	=69-	=69-
1BB-X	.	.	.	.	.	2.BB-X/	ae-	ae-	2.B-X\	ae-	ae-	0.ryy	.	.	.
.	.	.	.	.	.	4BB-/	-the-	-the-	4A/	-the-	-the-	.	.	.	.
2C,</	.	.	.	.	.	2C/	-ra	-ra	2G/	-ra	-ra	.	.	.	.
!LO:TX:t=P:problem:kreska pseudotaktowa	!	!	!	!	!	!	!	!	!	!	!	!	!	!	!
!	!	!	!	!	!	!LO:LB:g=original	!	!	!LO:LB:g=original	!	!	!	!	!	!
1.FF	.	.	.	.	.	2.FF/	vo-	vo-	2.A/	vo-	vo-	.	.	.	.
.	.	.	.	.	.	4FF/	-ci-	-ci-	4A/	-ci-	-ci-	.	.	.	.
!	!	!	!	!	!	!LO:TX:t=P:problem:kreska pseudotaktowa	!	!	!	!	!	!	!	!	!
.	.	.	.	.	.	2FF/	-bus	-bus	2A/	-bus	-bus	.	.	.	.
=70-	=70-	=70-	=70-	=70-	=70-	=70-	=70-	=70-	=70-	=70-	=70-	=70-	=70-	=70-	=70-
2F\	.	00.r	.	00.r	.	(4F\	cho-	cho-	(4A\	cho-	cho-	0.ryy	.	.	.
.	.	.	.	.	.	4A\)	.	.	4c\)	.	.	.	.	.	.
2G\	.	.	.	.	.	(4G\	-ris	-ris	(4B\	-ris	-ris	.	.	.	.
.	.	.	.	.	.	4B-X\)	.	.	4d\)	.	.	.	.	.	.
2A,<\	.	.	.	.	.	(4A\	an-	An-	(4c\	an-	An-	.	.	.	.
!	!	!	!	!	!	!	!	!	!LO:TX:a:t=P:problem:♭ above	!	!	!	!	!	!
.	.	.	.	.	.	4c\)	.	.	4e-X\)i	.	.	.	.	.	.
!LO:TX:t=P:problem:kreska pseudotaktowa	!	!	!	!	!	!	!	!	!	!	!	!	!	!	!
1.B-X	.	.	.	.	.	2.B-\	-ge-	-ge-	2.d\	-ge-	-ge-	.	.	.	.
.	.	.	.	.	.	4B-\	-li-	-li-	4d\	-li-	-li-	.	.	.	.
!	!	!	!	!	!	!LO:TX:t=P:problem:kreska pseudotaktowa	!	!	!	!	!	!	!	!	!
.	.	.	.	.	.	2B-\	-cis	-cis,	2d\	-cis	-cis,	.	.	.	.
=71-	=71-	=71-	=71-	=71-	=71-	=71-	=71-	=71-	=71-	=71-	=71-	=71-	=71-	=71-	=71-
2BB-X/	.	.	.	.	.	(4BB-X/	cho-	cho-	(4D/	cho-	cho-	0.ryy	.	.	.
.	.	.	.	.	.	4D/)	.	.	4F/)	.	.	.	.	.	.
2C/	.	.	.	.	.	(4C/	-ris	-ris	(4E/	-ris	-ris	.	.	.	.
.	.	.	.	.	.	4E-X/)	.	.	4G/)	.	.	.	.	.	.
2D,</	.	.	.	.	.	(4D\	an-	An-	(4F#X/	an-	An-	.	.	.	.
!	!	!	!	!	!	!LO:TX:t=P:problem:kreska pseudotaktowa	!	!	!	!	!	!	!	!	!
!	!	!	!	!	!	!LO:SIC:v:s=4F#\):t=problem:skok o interwał zwiększony	!	!	!	!	!	!	!	!	!
.	.	.	.	.	.	4F\)	.	.	4A/)	.	.	.	.	.	.
!LO:TX:t=P:problem:kreska pseudotaktowa	!	!	!	!	!	!	!	!	!	!	!	!	!	!	!
1.E-X	.	.	.	.	.	2.E-\	-ge-	-ge-	2.G/	-ge-	-ge-	.	.	.	.
.	.	.	.	.	.	4E-\	-li-	-li-	4G/	-li-	-li-	.	.	.	.
.	.	.	.	.	.	2E-\	-cis	-cis	2G/	-cis	-cis	.	.	.	.
=72-	=72-	=72-	=72-	=72-	=72-	=72-	=72-	=72-	=72-	=72-	=72-	=72-	=72-	=72-	=72-
1C	.	00.r	.	00.r	.	2.C/	iun-	jun-	2.c\	iun-	jun-	0.ryy	.	.	.
.	.	.	.	.	.	4C/	-gi-	-gi-	4B-X\	-gi-	-gi-	.	.	.	.
2D,</	.	.	.	.	.	2D/	-te	-te	2A/	-te	-te	.	.	.	.
2.GG/	.	.	.	.	.	2.GG/	car-	car-	2.B-X\	car-	car-	.	.	.	.
4AA/	.	.	.	.	.	4AA/	-mi-	-mi-	4c\	-mi-	-mi-	.	.	.	.
2BB-X/	.	.	.	.	.	2BB-X/	-na	-na,	2d\	-na	-na,	.	.	.	.
*custos:C	*	*	*	*	*	*custos:C	*	*	*custos:e	*	*	*	*	*	*
!LO:LB:g=original	!	!	!	!	!	!LO:LB:g=original	!	!	!LO:LB:g=original	!	!	!	!	!	!
=73-	=73-	=73-	=73-	=73-	=73-	=73-	=73-	=73-	=73-	=73-	=73-	=73-	=73-	=73-	=73-
2.C/	.	.	.	.	.	2.C/	jŭn-	jun-	2.e-X\	iun-	jun-	0.ryy	.	.	.
4D/	.	.	.	.	.	4D/	-gi-	-gi-	4f\	-gi-	-gi-	.	.	.	.
2E-X,<\	.	.	.	.	.	2E-X\	-te	-te	2g\	-te	-te	.	.	.	.
2C/	.	.	.	.	.	(2C/	car-	car-	(4c\	car-	car-	.	.	.	.
.	.	.	.	.	.	.	.	.	4B-X\)	.	.	.	.	.	.
!LO:TX:t=P:problem:kreska pseudotaktowa	!	!	!	!	!	!	!	!	!	!	!	!	!	!	!
1D	4:3	.	.	.	.	2.D/)	.	.	2.A/	.	.	.	.	.	.
.	.	.	.	.	.	4D/	-mi-	-mi-	4G/	-mi-	-mi-	.	.	.	.
=74-	=74-	=74-	=74-	=74-	=74-	=74-	=74-	=74-	=74-	=74-	=74-	=74-	=74-	=74-	=74-
1.GG	.	00.r	.	00.r	.	1GG	-na	-na,	1G	-na	-na,	0.ryy	.	.	.
!	!	!	!	!	!	!LO:TX:t=P:problem:kreska pseudotaktowa	!	!	!	!	!	!	!	!	!
.	.	.	.	.	.	2r	.	.	2r	.	.	.	.	.	.
!LO:TX:t=P:problem:kreska pseudotaktowa	!	!	!	!	!	!	!	!	!	!	!	!	!	!	!
1.G	#	.	.	.	.	2.G\	iun-	jun-	2.B\	iun-	jun-	.	.	.	.
.	.	.	.	.	.	4F\	-gi-	-gi-	4A\	-gi-	-gi-	.	.	.	.
.	.	.	.	.	.	2G\	-te	-te	2B\	-te	-te	.	.	.	.
=75-	=75-	=75-	=75-	=75-	=75-	=75-	=75-	=75-	=75-	=75-	=75-	=75-	=75-	=75-	=75-
1.E	6	.	.	.	.	2.E\	gau-	gau-	2.c\	gau-	gau-	0.ryy	.	.	.
.	.	.	.	.	.	4E\	-di-	-di-	4c\	-di-	-di-	.	.	.	.
!	!	!	!	!	!	!LO:TX:t=P:problem:kreska pseudotaktowa	!	!	!	!	!	!	!	!	!
.	.	.	.	.	.	2E\	-a	-a,	2c\	-a	-a,	.	.	.	.
!LO:TX:t=P:problem:kreska pseudotaktowa	!	!	!	!	!	!	!	!	!	!	!	!	!	!	!
1.E	.	.	.	.	.	2.E\	jun-	jun-	2.G/	iun-	jun-	.	.	.	.
.	.	.	.	.	.	4D/	-gi-	-gi-	4F/	-gi-	-gi-	.	.	.	.
!	!	!	!	!	!	!LO:TX:t=P:problem:kreska pseudotaktowa	!	!	!	!	!	!	!	!	!
.	.	.	.	.	.	2E\	-te	-te	2G/	-te	-te	.	.	.	.
=76-	=76-	=76-	=76-	=76-	=76-	=76-	=76-	=76-	=76-	=76-	=76-	=76-	=76-	=76-	=76-
1.F	.	00.r	.	00.r	.	2.F\	ju-	ju-	2.A/	ju-	ju-	0.ryy	.	.	.
.	.	.	.	.	.	4F\	-bi-	-bi-	4A/	-bi-	-bi-	.	.	.	.
.	.	.	.	.	.	2F\	-la	-la,	2A/	-la	-la,	.	.	.	.
!LO:TX:t=P:problem:kreska pseudotaktowa	!	!	!	!	!	!	!	!	!	!	!	!	!	!	!
1.AA	6	.	.	.	.	2.AA/	jun-	jun-	2.c\	jun-	jun-	.	.	.	.
.	.	.	.	.	.	4AA/	-gi-	-gi-	4B\	-gi-	-gi-	.	.	.	.
.	.	.	.	.	.	2AA/	-te	-te,	2A/	-te	-te	.	.	.	.
*	*	*	*	*	*	*	*	*	*custos:D	*	*	*	*	*	*
!	!	!	!	!	!	!	!	!	!LO:PB:g=original	!	!	!	!	!	!
=77-	=77-	=77-	=77-	=77-	=77-	=77-	=77-	=77-	=77-	=77-	=77-	=77-	=77-	=77-	=77-
1.BB-X	.	.	.	.	.	2.BB-X/	jun-	jun-	4D/	can-	can-	0.ryy	.	.	.
.	.	.	.	.	.	.	.	.	4E/	.	.	.	.	.	.
.	.	.	.	.	.	.	.	.	4F/	.	.	.	.	.	.
.	.	.	.	.	.	4BB-/	-gi-	-gi-	4G/	.	.	.	.	.	.
.	.	.	.	.	.	2BB-/	-te	-te	4A/	.	.	.	.	.	.
!	!	!	!	!	!	!	!	!	!LO:SIC:v:s=4B-/	!	!	!	!	!	!
.	.	.	.	.	.	.	.	.	4B/	.	.	.	.	.	.
!	!	!	!	!	!	!LO:LB:g=original	!	!	!	!	!	!	!	!	!
2AA/	6	.	.	.	.	(4AA/	can-	can-	4c\	.	.	.	.	.	.
.	.	.	.	.	.	4BB-/)	.	.	4d\	.	.	.	.	.	.
!LO:TX:t=P:problem:kreska pseudotaktowa	!	!	!	!	!	!	!	!	!	!	!	!	!	!	!
1C	4:3	.	.	.	.	2.C/	.	.	2.G/	.	.	.	.	.	.
.	.	.	.	.	.	4C/	-ti-	-ti-	4G/	-ti-	-ti-	.	.	.	.
=78-	=78-	=78-	=78-	=78-	=78-	=78-	=78-	=78-	=78-	=78-	=78-	=78-	=78-	=78-	=78-
1.FF	.	0.r	.	00.r	.	1FF	-ca	-ca,	1F	-ca	-ca,	0.ryy	.	.	.
.	.	.	.	.	.	2r	.	.	2r	.	.	.	.	.	.
*col	*	*	*	*	*	*	*	*	*	*	*	*	*	*	*
1EE	6	.	.	.	.	2.EE/	iun-	jun-	2.G/	jun-	jun-	.	.	.	.
.	.	.	.	.	.	4EE/	-gi-	-gi-	4G/	-gi-	-gi-	.	.	.	.
[2FF/	.	.	.	.	.	[2FF/	-te	-te	1A\	-te	-te	.	.	.	.
=79-	=79-	=79-	=79-	=79-	=79-	=79-	=79-	=79-	=79-	=79-	=79-	=79-	=79-	=79-	=79-
2FF/]	.	1.r	.	.	.	2FF/]	.	.	.	.	.	0.ryy	.	.	.
1GG	4:3	.	.	.	.	2.GG/	can-	can-	2.D/	can-	can-	.	.	.	.
.	.	.	.	.	.	4GG/	-ti-	-ti-	4C/	-ti-	-ti-	.	.	.	.
*Xcol	*	*	*	*	*	*	*	*	*	*	*	*	*	*	*
!LO:TX:b:i:t=ſinfoni.:mod=	!	!	!	!	!	!	!	!	!	!	!	!	!	!	!
!LO:TX:t=P:problem:kreska pseudotaktowa	!	!	!	!	!	!	!	!	!	!	!	!	!	!	!
!!LO:TX:a:B:t=:mod=Sinfonia
!	!	!	!	!	!	!	!	!	!	!	!	!LO:TX:a:t=Sinfonia\ntacet:mod=	!	!	!
1.C	.	4ee\	.	.	.	1C	-ca	-ca.	1.C	-ca	-ca.	.	.	.	.
.	.	4ff\	.	.	.	.	.	.	.	.	.	.	.	.	.
.	.	4gg\	.	.	.	.	.	.	.	.	.	.	.	.	.
.	.	4cc\	.	.	.	.	.	.	.	.	.	.	.	.	.
!	!	!LO:TX:a:t=P:problem:♭ above	!	!	!	!	!	!	!	!	!	!	!	!	!
.	.	4b-X/i	.	.	.	2r	.	.	.	.	.	.	.	.	.
.	.	4cc\	.	.	.	.	.	.	.	.	.	.	.	.	.
=80-	=80-	=80-	=80-	=80-	=80-	=80-	=80-	=80-	=80-	=80-	=80-	=80-	=80-	=80-	=80-
!	!	!	!	!LO:TX:b:t=Presto.:mod=	!	!	!	!	!	!	!	!	!	!	!
1.FF	.	2a/	.	4aa\	.	00.r	.	.	00.r	.	.	0.ryy	.	.	.
.	.	.	.	4bb-X\	.	.	.	.	.	.	.	.	.	.	.
.	.	2.a/	.	4ccc\	.	.	.	.	.	.	.	.	.	.	.
.	.	.	.	4ff\	.	.	.	.	.	.	.	.	.	.	.
.	.	.	.	4gg\	.	.	.	.	.	.	.	.	.	.	.
.	.	4b,</	.	4ff,<\	.	.	.	.	.	.	.	.	.	.	.
1.C,<	.	4cc\	.	4ee\	.	.	.	.	.	.	.	.	.	.	.
.	.	4b/	.	4dd\	.	.	.	.	.	.	.	.	.	.	.
.	.	4cc\	.	4ee\	.	.	.	.	.	.	.	.	.	.	.
.	.	4dd\	.	4ff\	.	.	.	.	.	.	.	.	.	.	.
.	.	4ee\	.	4gg\	.	.	.	.	.	.	.	.	.	.	.
!	!	!	!	!LO:SIC:s=4aa,\	!	!	!	!	!	!	!	!	!	!	!
.	.	4ff,<\	.	4aa\	.	.	.	.	.	.	.	.	.	.	.
=81-	=81-	=81-	=81-	=81-	=81-	=81-	=81-	=81-	=81-	=81-	=81-	=81-	=81-	=81-	=81-
1GG	.	2gg\	.	2bb-X\	.	.	.	.	.	.	.	0.ryy	.	.	.
.	.	4g/	.	4b-X/	.	.	.	.	.	.	.	.	.	.	.
.	.	4a/	.	4cc\	.	.	.	.	.	.	.	.	.	.	.
!LO:TX:t=P:problem:kreska pseudotaktowa	!	!LO:SIC:v:s=4b-/	!	!	!	!	!	!	!	!	!	!	!	!	!
2G\	.	4b/	.	4dd\	.	.	.	.	.	.	.	.	.	.	.
!	!	!	!	!LO:SIC:s=4ee,\	!	!	!	!	!	!	!	!	!	!	!
.	.	4cc,<\	.	4ee\	.	.	.	.	.	.	.	.	.	.	.
*	*	*	*	*custos:ff	*	*	*	*	*	*	*	*	*	*	*
!	!	!	!	!LO:LB:g=original	!	!	!	!	!	!	!	!	!	!	!
1.D	-	4dd\	.	4ff\	.	.	.	.	.	.	.	.	.	.	.
.	.	4cc\	.	4ee\	.	.	.	.	.	.	.	.	.	.	.
.	.	4dd\	.	4ff\	.	.	.	.	.	.	.	.	.	.	.
.	.	4ee\	.	4gg\	.	.	.	.	.	.	.	.	.	.	.
.	.	4ff\	.	4aa\	.	.	.	.	.	.	.	.	.	.	.
!	!	!LO:SIC:s=4gg,\	!	!	!	!	!	!	!	!	!	!	!	!	!
.	.	4gg\	.	4bb-,<\	.	.	.	.	.	.	.	.	.	.	.
*custos:AA	*	*custos:aa	*	*	*	*	*	*	*	*	*	*	*	*	*
!LO:LB:g=original	!	!LO:LB:g=original	!	!	!	!	!	!	!	!	!	!	!	!	!
=82-	=82-	=82-	=82-	=82-	=82-	=82-	=82-	=82-	=82-	=82-	=82-	=82-	=82-	=82-	=82-
1.AA	6	4aa\	.	4ccc\	.	00.r	.	.	00.r	.	.	0.ryy	.	.	.
.	.	4ff\	.	4aa\	.	.	.	.	.	.	.	.	.	.	.
.	.	4aa\	.	4ccc\	.	.	.	.	.	.	.	.	.	.	.
.	.	4gg\	.	4bb-X\	.	.	.	.	.	.	.	.	.	.	.
.	.	4ff\	.	4aa\	.	.	.	.	.	.	.	.	.	.	.
.	.	4ee,<\	.	4gg,<\	.	.	.	.	.	.	.	.	.	.	.
!LO:TX:t=P:problem:kreska pseudotaktowa	!	!	!	!	!	!	!	!	!	!	!	!	!	!	!
[>1.BB-X	# 5	4dd\	.	4ff\	.	.	.	.	.	.	.	.	.	.	.
.	.	4b-X/	.	4dd\	.	.	.	.	.	.	.	.	.	.	.
.	.	4dd\	.	4ff\	.	.	.	.	.	.	.	.	.	.	.
.	.	4cc\	.	4ee\	.	.	.	.	.	.	.	.	.	.	.
.	.	4b-X/	.	4dd\	.	.	.	.	.	.	.	.	.	.	.
.	.	4a,</	.	4cc,<\	.	.	.	.	.	.	.	.	.	.	.
=83-	=83-	=83-	=83-	=83-	=83-	=83-	=83-	=83-	=83-	=83-	=83-	=83-	=83-	=83-	=83-
1.BB-]	6	4b-X/	.	4dd\	.	.	.	.	.	.	.	0.ryy	.	.	.
.	.	4g/	.	4b-X/	.	.	.	.	.	.	.	.	.	.	.
.	.	4b-X/	.	4dd\	.	.	.	.	.	.	.	.	.	.	.
.	.	4a/	.	4cc\	.	.	.	.	.	.	.	.	.	.	.
.	.	4g/	.	4b-/	.	.	.	.	.	.	.	.	.	.	.
.	.	4f,</	.	4a,</	.	.	.	.	.	.	.	.	.	.	.
2.C/	.	2e/	.	2g/	.	.	.	.	.	.	.	.	.	.	.
.	.	4f/	.	4a/	.	.	.	.	.	.	.	.	.	.	.
4BB-X/	.	4g/	.	4b-/	.	.	.	.	.	.	.	.	.	.	.
!LO:TX:t=P:problem:kreska pseudotaktowa	!	!	!	!	!	!	!	!	!	!	!	!	!	!	!
2AA/	.	2a,</	.	2cc,<\	.	.	.	.	.	.	.	.	.	.	.
=84-	=84-	=84-	=84-	=84-	=84-	=84-	=84-	=84-	=84-	=84-	=84-	=84-	=84-	=84-	=84-
2BB-X/	.	2f/	.	2dd\	.	00.r	.	.	00.r	.	.	0.ryy	.	.	.
1C	4:3	2.f/	.	2.g/	.	.	.	.	.	.	.	.	.	.	.
.	.	4e,</	.	4g,</	.	.	.	.	.	.	.	.	.	.	.
!LO:TX:t=P:problem:kreska pseudotaktowa	!	!	!	!	!	!	!	!	!	!	!	!	!	!	!
1.FF	.	4a/	.	2f/	.	.	.	.	.	.	.	.	.	.	.
.	.	4b-X/	.	.	.	.	.	.	.	.	.	.	.	.	.
.	.	4cc\	.	2r	.	.	.	.	.	.	.	.	.	.	.
.	.	4f/	.	.	.	.	.	.	.	.	.	.	.	.	.
.	.	4g/	.	2r,<	.	.	.	.	.	.	.	.	.	.	.
.	.	4f,</	.	.	.	.	.	.	.	.	.	.	.	.	.
=85-	=85-	=85-	=85-	=85-	=85-	=85-	=85-	=85-	=85-	=85-	=85-	=85-	=85-	=85-	=85-
1.C	.	2e/	.	4ee\	.	.	.	.	.	.	.	0.ryy	.	.	.
.	.	.	.	4ff\	.	.	.	.	.	.	.	.	.	.	.
.	.	2.ee\	.	4gg\	.	.	.	.	.	.	.	.	.	.	.
.	.	.	.	4cc\	.	.	.	.	.	.	.	.	.	.	.
.	.	.	.	4dd\	.	.	.	.	.	.	.	.	.	.	.
!	!	!	!	!LO:SIC:s=4cc,\	!	!	!	!	!	!	!	!	!	!	!
.	.	4ee,<\	.	4cc\	.	.	.	.	.	.	.	.	.	.	.
1G	.	1dd	.	4b/	.	.	.	.	.	.	.	.	.	.	.
.	.	.	.	4cc\	.	.	.	.	.	.	.	.	.	.	.
.	.	.	.	4dd\	.	.	.	.	.	.	.	.	.	.	.
.	.	.	.	4g/	.	.	.	.	.	.	.	.	.	.	.
!LO:TX:t=P:problem:kreska pseudotaktowa	!	!	!	!	!	!	!	!	!	!	!	!	!	!	!
2F\	.	2dd\	.	4a/	.	.	.	.	.	.	.	.	.	.	.
.	.	.	.	4b/	.	.	.	.	.	.	.	.	.	.	.
*	*	*	*	*custos:cc	*	*	*	*	*	*	*	*	*	*	*
!	!	!	!	!LO:LB:g=original	!	!	!	!	!	!	!	!	!	!	!
=86-	=86-	=86-	=86-	=86-	=86-	=86-	=86-	=86-	=86-	=86-	=86-	=86-	=86-	=86-	=86-
2E\	.	2ee\	.	2cc\	.	0.r	.	.	0.r	.	.	0.ryy	.	.	.
2F\	.	2.dd\	.	2.cc\	.	.	.	.	.	.	.	.	.	.	.
2G\	.	.	.	.	.	.	.	.	.	.	.	.	.	.	.
.	.	4dd\	.	4b\	.	.	.	.	.	.	.	.	.	.	.
1.C	.	1.ee	.	1.cc	.	.	.	.	.	.	.	.	.	.	.
*	*	*custos:cc	*	*	*	*	*	*	*	*	*	*	*	*	*
!	!	!LO:LB:g=original	!	!	!	!	!	!	!	!	!	!LO:LB:g=original	!	!	!
=87||-	=87||-	=87||-	=87||-	=87||-	=87||-	=87||-	=87||-	=87||-	=87||-	=87||-	=87||-	=87||-	=87||-	=87||-	=87||-
*M2/1	*	*M2/1	*	*M2/1	*	*M2/1	*	*	*M2/1	*	*	*M2/1	*	*	*
*met(C)	*	*met(C)	*	*met(C|)	*	*met(C)	*	*	*met(C|)	*	*	*met(C)	*	*	*
!LO:TX:b:i:t=Tutti&colon;:mod=	!	!	!	!	!	!	!	!	!	!	!	!	!	!	!
!LO:TX:a:B:t=adag:rj:mod=	!	!	!	!	!	!	!	!	!	!	!	!	!	!	!
2r	.	2r	.	2r	.	2r	.	.	2r	.	.	2r	.	.	.
2C/	.	2cc\	.	2gg\	.	2C/	O	O	2c\	O	O	2e\	O	O	.
*	*	*	*	*	*	*	*	*	*custos:c	*	*	*	*	*	*
!	!	!	!	!	!	!	!	!	!LO:LB:g=original	!	!	!	!	!	!
1GG	4:3	1dd	.	1gg	.	2GG/	Je-	Je-	2c\	Je-	Je-	2d\	Je-	Je-	.
!	!	!	!	!	!	!	!	!	!	!	!	!LO:TX:t=P:problem:kreska pseudotaktowa	!	!	!
.	.	.	.	.	.	2GG/	-su	-su,	2B\	-su	-su,	2d\	-su	-su,	.
=88-	=88-	=88-	=88-	=88-	=88-	=88-	=88-	=88-	=88-	=88-	=88-	=88-	=88-	=88-	=88-
4r	.	4r	.	4r	.	4r	.	.	4r	.	.	4r	.	.	.
4G\	.	4dd\	.	4gg\	.	4G\	o	o	4B\	o	o	4d\	ô	o	.
2G,<\	6 #4 2	2cc#X\	.	1aa	.	4G\	Je-	Je-	4c#X\	Je-	Je-	4e\	Je-	Je-	.
.	.	.	.	.	.	4G\	-sŭ	-su	4c#\	-su	-su	4e\	-su	-su	.
2F\	6	2a/	.	.	.	4.F\	sa-	sa-	4.d\	sa-	sa-	4.f\	sa-	sa-	.
.	.	.	.	.	.	8F\	-lus	-lus	8d\	-lus	-lus	8f\	-lus	-lus	.
2E\	7:6|	4b/	.	4.gg\	.	2E\	me-	me-	4.d\	me-	me-	2g\	me-	me-	.
!	!	!LO:SIC:s=4g,/	!	!	!	!	!	!	!	!	!	!	!	!	!
.	.	4g/	.	.	.	.	.	.	.	.	.	.	.	.	.
.	.	.	.	8aa,<\	.	.	.	.	(8c#X\	a	a,	.	.	.	.
*custos:D	*	*	*	*	*	*	*	*	*	*	*	*	*	*	*
!LO:LB:g=original	!	!	!	!	!	!	!	!	!	!	!	!	!	!	!
=89-	=89-	=89-	=89-	=89-	=89-	=89-	=89-	=89-	=89-	=89-	=89-	=89-	=89-	=89-	=89-
2D/	-6:5	2dd\	.	8bb-X\L	.	2D/	-a	-a,	2d\)	.	.	2f\	-a	-a,	.
.	.	.	.	8aa\J	.	.	.	.	.	.	.	.	.	.	.
.	.	.	.	4aa\	.	.	.	.	.	.	.	.	.	.	.
4r	.	4r	.	4r	.	4r	.	.	4r	.	.	4f\	ô	o	.
4D/	.	4dd\	.	4aa\	.	4D/	ô	o	4d\	ò	o	4.f\	Je-	Je-	.
*	*	*	*	*	*	*custos:GG	*	*	*	*	*	*	*	*	*
!	!	!	!	!	!	!LO:LB:g=original	!	!	!	!	!	!	!	!	!
2GG/	7 5 #3	2dd\	.	2gg\	.	4.GG/	Je-	Je-	4.B\	Je-	Je-	.	.	.	.
.	.	.	.	.	.	.	.	.	.	.	.	8e\	-su	-su	.
.	.	.	.	.	.	.	.	.	.	.	.	2e\	sa-	sa-	.
.	.	.	.	.	.	8GG/	-su	-su	8B\	-su	-su	.	.	.	.
4AA/	.	4cc\	.	2dd\	.	4AA/	sa-	sa-	4.c\	sa-	sa-	.	.	.	.
!LO:TX:t=P:problem:kreska pseudotaktowa	!	!	!	!	!	!	!	!	!	!	!	!	!	!	!
4FF/	.	4ff\	.	.	.	4FF/	-lus	-lus	.	.	.	4a\	-lus	-lus	.
.	.	.	.	.	.	.	.	.	8c\	-lus	-lus	.	.	.	.
=90-	=90-	=90-	=90-	=90-	=90-	=90-	=90-	=90-	=90-	=90-	=90-	=90-	=90-	=90-	=90-
1GG	# 3:4:3	4r	.	4r	.	1GG	me-	me-	4B\	me-	me-	1d	me-	me-	.
.	.	2dd\	.	2gg\	.	.	.	.	2c\	.	.	.	.	.	.
.	.	4dd\	.	4gg\	.	.	.	.	(4B\	-a	-a!	.	.	.	.
1C	.	1cc	.	1gg	.	1C	-a	-a!	1c)	.	.	1e	-a	-a!	.
!	!	!	!	!	!	!	!	!	!LO:LB:g=original	!	!	!	!	!	!
=91||-	=91||-	=91||-	=91||-	=91||-	=91||-	=91||-	=91||-	=91||-	=91||-	=91||-	=91||-	=91||-	=91||-	=91||-	=91||-
*M3/1	*	*M3/1	*	*M3/1	*	*M3/1	*	*	*M3/1	*	*	*M3/1	*	*	*
*met(3/2)	*	*met(3/2)	*	*met(3/2)	*	*met(3/2)	*	*	*met(3/2)	*	*	*met(3/2)	*	*	*
!	!	!LO:TX:a:t=3.:mod=	!	!LO:TX:a:t=3.:mod=	!	!	!	!	!	!	!	!	!	!	!
2C/	.	0.r	.	0.r	.	00.r	.	.	2r	.	.	2r	.	.	.
1E,<	6	.	.	.	.	.	.	.	2c\	Quan-	Quan-	2e\	Quan-	Quan-	.
.	.	.	.	.	.	.	.	.	2e\	-do	-do,	2g\	-do	-do,	.
1F	.	.	.	.	.	.	.	.	2A/	quan-	quan-	2c/	qua(n)-	quan-	.
.	.	.	.	.	.	.	.	.	2B\	-do	-do	2d\	-do	-do	.
2E,<\	6	.	.	.	.	.	.	.	2c\	a-	a-	2e\	a-	a-	.
*	*	*	*	*	*	*	*	*	*	*	*	*custos:e	*	*	*
!	!	!	!	!	!	!	!	!	!	!	!	!LO:LB:g=original	!	!	!
=92-	=92-	=92-	=92-	=92-	=92-	=92-	=92-	=92-	=92-	=92-	=92-	=92-	=92-	=92-	=92-
!	!	!	!	!LO:TX:b:i:t=Verte&colon; Cito.:mod=	!	!	!	!	!	!	!	!	!	!	!
2F\	.	1.r	.	1.r	.	.	.	.	2c\	-ma-	-ma-	2e\	-ma-	-ma-	.
2G\	.	.	.	.	.	.	.	.	(2B\	-bo	-bo	(2d\	-bo	-bo	.
!LO:TX:t=P:problem:kreska pseudotaktowa	!	!	!	!	!	!	!	!	!	!	!	!	!	!	!
2GG/	.	.	.	.	.	.	.	.	2c\)	.	.	2e\)	.	.	.
*	*	*custos:cc	*	*custos:ee	*	*	*	*	*	*	*	*	*	*	*
!	!	!LO:PB:g=original	!	!LO:PB:g=original	!	!	!	!	!	!	!	!	!	!	!
2C/	.	2r	.	2r	.	.	.	.	1c	te	te.	1c	te	te.	.
1E,<	6	2cc\	.	2ee\	.	.	.	.	.	.	.	.	.	.	.
.	.	2ee,<\	.	2gg,<\	.	.	.	.	2r	.	.	2r	.	.	.
=93-	=93-	=93-	=93-	=93-	=93-	=93-	=93-	=93-	=93-	=93-	=93-	=93-	=93-	=93-	=93-
1F	.	2a/	.	2cc\	.	0.r	.	.	00.r	.	.	00.r	.	.	.
.	.	2b/	.	2dd\	.	.	.	.	.	.	.	.	.	.	.
2E,<\	6	2cc,<\	.	2ee,<\	.	.	.	.	.	.	.	.	.	.	.
2F\	.	1cc	.	2ee\	.	.	.	.	.	.	.	.	.	.	.
!LO:TX:t=P:problem:kreska pseudotaktowa	!	!	!	!	!	!	!	!	!	!	!	!	!	!	!
1G	4:3	.	.	2dd\	.	.	.	.	.	.	.	.	.	.	.
!	!	!LO:SIC:s=2b,/	!	!	!	!	!	!	!	!	!	!	!	!	!
.	.	2b/	.	2ee,<\	.	.	.	.	.	.	.	.	.	.	.
=94-	=94-	=94-	=94-	=94-	=94-	=94-	=94-	=94-	=94-	=94-	=94-	=94-	=94-	=94-	=94-
1.C	.	1cc	.	2cc\	.	2r	.	.	.	.	.	.	.	.	.
.	.	.	.	2ee\	.	2C/	Me-	Me-	.	.	.	.	.	.	.
!	!	!LO:SIC:s=2cc,\	!	!	!	!	!	!	!	!	!	!	!	!	!
.	.	2cc\	.	2ee,<\	.	2C/	-a	-a	.	.	.	.	.	.	.
2D/	6	1b-X	.	2ff\	.	2D/	spes	spes,	.	.	.	.	.	.	.
!LO:TX:t=P:problem:kreska pseudotaktowa	!	!	!	!	!	!	!	!	!	!	!	!	!	!	!
1E	-6	.	.	2.gg\	.	2.E\	vi-	vi-	.	.	.	.	.	.	.
.	.	2b-/	.	.	.	.	.	.	.	.	.	.	.	.	.
.	.	.	.	4gg\	.	4E\	-ta	-ta	.	.	.	.	.	.	.
=95-	=95-	=95-	=95-	=95-	=95-	=95-	=95-	=95-	=95-	=95-	=95-	=95-	=95-	=95-	=95-
[1.F,<	.	1.a	.	1.aa	.	1.F	me-	me-	2r	.	.	2r	.	.	.
.	.	.	.	.	.	.	.	.	2A/	me-	me-	2c/	me-	me-	.
.	.	.	.	.	.	.	.	.	2A/	-a	-a	2c/	-a	-a	.
!	!	!LO:TX:a:t=4:mod=	!	!LO:TX:a:t=4:mod=	!	!	!	!	!	!	!	!	!	!	!
2F\]	6 #4 2	00.r	.	00.r	.	2F\	-a	-a,	2B\	spes	spes,	2d\	spes	spes,	.
1E,<	6	.	.	.	.	2.E\	vi-	vi-	2.c#X\	vi-	vi-	2.e\	vi-	vi-	.
!	!	!	!	!	!	!	!	!	!LO:TX:t=P:problem:kreska pseudotaktowa	!	!	!	!	!	!
.	.	.	.	.	.	4E\	-ta	-ta	4c#\	-ta	-ta	4e\	-ta	-ta	.
=96-	=96-	=96-	=96-	=96-	=96-	=96-	=96-	=96-	=96-	=96-	=96-	=96-	=96-	=96-	=96-
1D	-	.	.	.	.	2D/	me-	me-	2d\	me-	me-	2f\	me-	me-	.
.	.	.	.	.	.	2D/	-a	-a,	2d\	-a	-a,	2f\	-a	-a,	.
*	*	*	*	*	*	*	*	*	*custos:d	*	*	*	*	*	*
!	!	!	!	!	!	!	!	!	!LO:LB:g=original	!	!	!	!	!	!
2BB/	6	.	.	.	.	4BB/	me-	me-	4d\	me-	me-	4g\	me-	me-	.
!	!	!	!	!	!	!LO:TX:t=P:problem:kreska pseudotaktowa	!	!	!LO:TX:t=P:problem:kreska pseudotaktowa	!	!	!	!	!	!
.	.	.	.	.	.	4BB/	-a	-a	4e\	-a	-a	4f\	-a	-a	.
*custos:C	*	*	*	*	*	*	*	*	*	*	*	*	*	*	*
!LO:LB:g=original	!	!	!	!	!	!	!	!	!	!	!	!	!	!	!
2C/	.	.	.	.	.	2C/	spes	spes,	2c\	spes	spes,	2e\	spes	spes,	.
2D/	.	.	.	.	.	2D/	vi-	vi-	2c\	vi-	vi-	2f#X\	vi-	vi-	.
2E,<\	.	.	.	.	.	2E\	-ta	-ta	2B\	-ta	-ta	2g\	-ta	-ta	.
=97-	=97-	=97-	=97-	=97-	=97-	=97-	=97-	=97-	=97-	=97-	=97-	=97-	=97-	=97-	=97-
2C/	.	.	.	.	.	(<2C/	me-	me-	(2B\	me-	me-	1g	me-	me-	.
!LO:TX:t=P:problem:kreska pseudotaktowa	!	!	!	!	!	!	!	!	!	!	!	!	!	!	!
1D	4:3	.	.	.	.	1D)	.	.	1A)	.	.	.	.	.	.
.	.	.	.	.	.	.	.	.	.	.	.	(2f#X\	-a	-a.	.
2GG/	.	2r	.	2r	.	1.GG	-a	-a.	1G	-a	-a.	1g)	.	.	.
1BB,<	6	2g/	.	2b/	.	.	.	.	.	.	.	.	.	.	.
.	.	2b,</	.	2dd,<\	.	.	.	.	2r	.	.	2r	.	.	.
!	!	!	!	!	!	!LO:PB:g=original	!	!	!	!	!	!	!	!	!
=98-	=98-	=98-	=98-	=98-	=98-	=98-	=98-	=98-	=98-	=98-	=98-	=98-	=98-	=98-	=98-
1C	.	2e/	.	2g/	.	0.r	.	.	00.r	.	.	00.r	.	.	.
.	.	2f#X/	.	2a/	.	.	.	.	.	.	.	.	.	.	.
2BB,</	6	2g,</	.	2b,</	.	.	.	.	.	.	.	.	.	.	.
2C/	.	1g	.	2b/	.	.	.	.	.	.	.	.	.	.	.
!LO:TX:t=P:problem:kreska pseudotaktowa	!	!	!	!	!	!	!	!	!	!	!	!	!	!	!
1D	4:3	.	.	2a/	.	.	.	.	.	.	.	.	.	.	.
.	.	2f#X,</	.	2b,</	.	.	.	.	.	.	.	.	.	.	.
=99-	=99-	=99-	=99-	=99-	=99-	=99-	=99-	=99-	=99-	=99-	=99-	=99-	=99-	=99-	=99-
1.GG	.	2g/	.	2g/	.	1.r	.	.	.	.	.	.	.	.	.
.	.	2b/	.	2dd\	.	.	.	.	.	.	.	.	.	.	.
.	.	2b,</	.	2dd,<\	.	.	.	.	.	.	.	.	.	.	.
2GG/	6	2b/	.	2ee\	.	2r	.	.	.	.	.	.	.	.	.
!LO:TX:t=P:problem:kreska pseudotaktowa	!	!	!	!	!	!	!	!	!	!	!	!	!	!	!
1AA	# 6	2.cc#X\	.	2.ff#X\	.	2AA/	me-	Me-	.	.	.	.	.	.	.
.	.	.	.	.	.	2AA/	-a	-a	.	.	.	.	.	.	.
.	.	4cc#,<\	.	4ff#,<\	.	.	.	.	.	.	.	.	.	.	.
=100-	=100-	=100-	=100-	=100-	=100-	=100-	=100-	=100-	=100-	=100-	=100-	=100-	=100-	=100-	=100-
2BB/	.	2dd\	.	1gg	.	2BB/	spes	spes,	0.r	.	.	1.r	.	.	.
!LO:TX:t=P:problem:kreska pseudotaktowa	!	!LO:SIC:s=1ee,	!	!	!	!	!	!	!	!	!	!	!	!	!
1C#X	6 -5	1ee	.	.	.	2.C#X/	vi-	vi-	.	.	.	.	.	.	.
.	.	.	.	2gg,<\	.	.	.	.	.	.	.	.	.	.	.
.	.	.	.	.	.	4C#/	-ta	-ta	.	.	.	.	.	.	.
*	*	*custos:ee	*	*	*	*	*	*	*	*	*	*	*	*	*
!	!	!LO:LB:g=original	!	!	!	!	!	!	!	!	!	!	!	!	!
1.D	# 9:8	2ee\	.	1.ff#X	.	2D/	me-	me-	.	.	.	2r	.	.	.
.	.	1dd	.	.	.	2D/	-a	-a.	.	.	.	2f#X\	quan-	Quan-	.
.	.	.	.	.	.	2r	.	.	.	.	.	2a\	-do	-do,	.
*	*	*	*	*custos:b	*	*	*	*	*	*	*	*custos:d	*	*	*
!	!	!	!	!LO:LB:g=original	!	!	!	!	!	!	!	!LO:LB:g=original	!	!	!
=101-	=101-	=101-	=101-	=101-	=101-	=101-	=101-	=101-	=101-	=101-	=101-	=101-	=101-	=101-	=101-
!LO:TX:t=P:problem:kreska pseudotaktowa	!	!LO:TX:a:t=3:mod=	!	!LO:TX:a:t=3.:mod=	!	!	!	!	!	!	!	!	!	!	!
1.BB	6	0.r	.	0.r	.	00.r	.	.	2r	.	.	2d\	quan-	quan-	.
.	.	.	.	.	.	.	.	.	2B\	quan-	Quan-	2d\	-do	-do	.
!	!	!	!	!	!	!	!	!	!LO:TX:t=P:problem:kreska pseudotaktowa	!	!	!	!	!	!
.	.	.	.	.	.	.	.	.	2d\	-do	-do,	2d\	a-	a-	.
1C	.	.	.	.	.	.	.	.	2G/	qua(n)-	quan-	2e\	-ma-	-ma-	.
.	.	.	.	.	.	.	.	.	2A/	-do	-do	2f#X\	-bo	-bo,	.
2BB/	.	.	.	.	.	.	.	.	2B\	a-	a-	2g\	a-	a-	.
=102-	=102-	=102-	=102-	=102-	=102-	=102-	=102-	=102-	=102-	=102-	=102-	=102-	=102-	=102-	=102-
2C/	.	1.r	.	1.r	.	.	.	.	2B\	-ma-	-ma-	1g	-ma-	-ma-	.
!LO:TX:t=P:problem:kreska pseudotaktowa	!	!	!	!	!	!	!	!	!	!	!	!	!	!	!
1D	4:3	.	.	.	.	.	.	.	(2A/	-bo	-bo	.	.	.	.
.	.	.	.	.	.	.	.	.	2B\)	.	.	2f#X\	-bo	-bo	.
1GG	.	2r	.	2r	.	.	.	.	1G	te	te,	1g	te	te,	.
.	.	2g/	.	2b/	.	.	.	.	.	.	.	.	.	.	.
2G,<\	.	2g,</	.	2b,</	.	.	.	.	2r	.	.	2r	.	.	.
=103-	=103-	=103-	=103-	=103-	=103-	=103-	=103-	=103-	=103-	=103-	=103-	=103-	=103-	=103-	=103-
2F\	.	2a/	.	2cc\	.	0.r	.	.	1.r	.	.	1.r	.	.	.
!LO:TX:t=P:problem:kreska pseudotaktowa	!	!	!	!	!	!	!	!	!	!	!	!	!	!	!
1D	# 6	2.b/	.	2.dd\	.	.	.	.	.	.	.	.	.	.	.
.	.	4b,</	.	4dd,<\	.	.	.	.	.	.	.	.	.	.	.
!	!	!	!	!	!	!	!	!	!LO:LB:g=original	!	!	!	!	!	!
[1.C	.	1cc	.	1ee	.	.	.	.	2r	.	.	2r	.	.	.
.	.	.	.	.	.	.	.	.	2G/	me-	me-	2e\	me-	me-	.
!	!	!	!	!	!	!	!	!	!LO:TX:t=P:problem:kreska pseudotaktowa	!	!	!	!	!	!
.	.	2cc,<\	.	2ee,<\	.	.	.	.	2G/	-a	-a	2e\	-a	-a	.
=104-	=104-	=104-	=104-	=104-	=104-	=104-	=104-	=104-	=104-	=104-	=104-	=104-	=104-	=104-	=104-
2C/]	6 #4 2	2a/	.	1dd	.	1.r	.	.	2A/	spes	spes,	2f#X\	spes	spes,	.
1BB	6	1g#X,<	.	.	.	.	.	.	2.B\	vi-	vi-	2.g#X\	vi-	vi-	.
.	.	.	.	2dd,<\	.	.	.	.	.	.	.	.	.	.	.
.	.	.	.	.	.	.	.	.	4B\	-ta	-ta	4g#\	-ta	-ta	.
*custos:AA	*	*	*	*	*	*	*	*	*	*	*	*	*	*	*
!LO:LB:g=original	!	!	!	!	!	!	!	!	!	!	!	!	!	!	!
1AA	.	1.cc,<	.	2cc\	.	2r	.	.	2c\	me-	me-	2a\	me-	me-	.
.	.	.	.	2aa\	.	2AA/	me-	Me-	2c\	-a	-a,	2a\	-a	-a,	.
!LO:TX:t=P:problem:kreska pseudotaktowa	!	!	!	!	!	!	!	!	!	!	!	!	!	!	!
2AA/	-	.	.	2aa,<\	.	2AA/	-a	-a	4c\	me-	me-	4a\	me-	me-	.
.	.	.	.	.	.	.	.	.	4c\	-a	-a	4b\	-a	-a	.
=105-	=105-	=105-	=105-	=105-	=105-	=105-	=105-	=105-	=105-	=105-	=105-	=105-	=105-	=105-	=105-
2BB/	.	2b/	.	2dd\	.	2BB/	spes	spes,	2d\	spes	spes,	2g\	spes	spes,	.
1C#X	6 -5	1a,<	.	2gg\	.	2.C#X/	vi-	vi-	2.e\	vi-	vi-	2.g\	vi-	vi-	.
!	!	!	!	!LO:SIC:s=2ee,\	!	!	!	!	!	!	!	!	!	!	!
.	.	.	.	2ee\	.	.	.	.	.	.	.	.	.	.	.
!	!	!	!	!	!	!	!	!	!LO:TX:t=P:problem:kreska pseudotaktowa	!	!	!	!	!	!
.	.	.	.	.	.	4C#/	-ta	-ta	4e\	-ta	-ta	4f#X\	-ta	-ta	.
*	*	*	*	*	*	*	*	*	*	*	*	*custos:f#	*	*	*
!	!	!	!	!	!	!	!	!	!	!	!	!LO:LB:g=original	!	!	!
1D	#	1a	.	1dd	.	2D/	me-	me-	2A/	me-	me-	2f#X\	me-	me-	.
.	.	.	.	.	.	2D/	-a	-a,	2A/	-a	-a,	2f#\	-a	-a,	.
!LO:TX:t=P:problem:kreska pseudotaktowa	!	!	!	!LO:SIC:s=2dd,\	!	!	!	!	!	!	!	!	!	!	!
2BB/	6	2b,</	.	2dd\	.	4BB/	me-	me-	4d\	me-	me-	4g\	me-	me-	.
.	.	.	.	.	.	4BB/	-a	-a	4d\	-a	-a	4fn\	-a	-a	.
=106-	=106-	=106-	=106-	=106-	=106-	=106-	=106-	=106-	=106-	=106-	=106-	=106-	=106-	=106-	=106-
2C/	.	2g/	.	1ee	.	2C/	spes	spes,	2c\	spes	spes,	2e\	spes	spes,	.
1AA,<	.	1a	.	.	.	2.AA/	vi-	vi-	2.e\	vi-	vi-	2.a\	vi-	vi-	.
.	.	.	.	2ee\	.	.	.	.	.	.	.	.	.	.	.
!	!	!	!	!	!	!	!	!	!	!	!	!LO:TX:t=P:problem:kreska pseudotaktowa	!	!	!
.	.	.	.	.	.	4AA/	-ta	-ta	4e\	-ta	-ta	4b\	-ta	-ta	.
*	*	*	*	*	*	*custos:BB	*	*	*	*	*	*	*	*	*
!LO:TX:t=P:problem:kreska pseudotaktowa	!	!	!	!LO:SIC:s=1.b,	!	!LO:LB:g=original	!	!	!LO:LB:g=original	!	!	!	!	!	!
1.BB	4:3	2r	.	1.b	.	1.BB	me-	me-	1e	me-	me-	(2g\	me-	me-	.
.	.	2r	.	.	.	.	.	.	.	.	.	1f#X)	.	.	.
!	!	!LO:TX:b:t=P:problem:# below	!	!	!	!	!	!	!	!	!	!	!	!	!
.	.	2f#X,</	.	.	.	.	.	.	(2d#X\	-a	-a,	.	.	.	.
=107-	=107-	=107-	=107-	=107-	=107-	=107-	=107-	=107-	=107-	=107-	=107-	=107-	=107-	=107-	=107-
2E\	.	2g/	.	2b/	.	2E\	-a	-a,	2e\)	.	.	2e\	-a	-a,	.
1C#X,<	.	1a,<	.	2cc#X\	.	2.C#X/	vi-	vi-	2.e\	vi-	vi-	2.a\	me-	me-	.
!	!	!	!	!LO:SIC:s=2ee,\	!	!	!	!	!	!	!	!	!	!	!
.	.	.	.	2ee\	.	.	.	.	.	.	.	.	.	.	.
.	.	.	.	.	.	4C#/	-ta	-ta	4e\	-ta	-ta	4g\	-a	-a	.
!LO:TX:t=P:problem:kreska pseudotaktowa	!	!	!	!	!	!	!	!	!	!	!	!	!	!	!
1.D	#	2a/	.	1ff#X	.	2D/	me-	me-	2d\	me-	me-	2.f#X\	spes	spes,	.
.	.	2d/	.	.	.	2.D/	-a	-a,	2.d\	-a	-a,	.	.	.	.
.	.	.	.	.	.	.	.	.	.	.	.	4g\	vi-	vi-	.
.	.	[2a/	.	2ff#\	.	.	.	.	.	.	.	2a\	-ta	-ta	.
.	.	.	.	.	.	4D\	spes	spes	4c\	spes	spes	.	.	.	.
=108-	=108-	=108-	=108-	=108-	=108-	=108-	=108-	=108-	=108-	=108-	=108-	=108-	=108-	=108-	=108-
1.E	4:3	2a/]	.	1.ee	.	(2E\	me-	me-	(2c\	me-	me-	1a	me-	me-	.
.	.	1e	.	.	.	1EE)	.	.	1B)	.	.	.	.	.	.
.	.	.	.	.	.	.	.	.	.	.	.	(2g#X\	-a	-a.	.
1.AA,<	#	2e/	.	2cc#X\	.	1AA	-a	-a.	2A/	-a	-a.	2a\)	.	.	.
.	.	2r	.	2r	.	.	.	.	2c#X\	quan-	Quan-	2r	.	.	.
!	!	!	!	!	!	!LO:TX:t=P:problem:kreska pseudotaktowa	!	!	!LO:TX:t=P:problem:kreska pseudotaktowa	!	!	!	!	!	!
.	.	2r	.	2r	.	2r	.	.	2e\	-do	-do,	2r	.	.	.
=109-	=109-	=109-	=109-	=109-	=109-	=109-	=109-	=109-	=109-	=109-	=109-	=109-	=109-	=109-	=109-
!	!	!LO:TX:a:t=9.:mod=	!	!LO:TX:a:t=10.:mod=	!	!	!	!	!	!	!	!	!	!	!
1AA	.	00.r	.	00.r	.	2r	.	.	2A/	qua(n)-	quan-	1.r	.	.	.
.	.	.	.	.	.	2AA/	quan-	Quan-	2A/	-do	-do,	.	.	.	.
!LO:TX:t=P:problem:kreska pseudotaktowa	!	!	!	!	!	!	!	!	!	!	!	!	!	!	!
2C#X/	.	.	.	.	.	2C#X/	-do	-do,	2r	.	.	.	.	.	.
1.FF#X	6	.	.	.	.	2FF#X/	quan-	quan-	2r	.	.	2r	.	.	.
.	.	.	.	.	.	2FF#/	-do	-do,	2d\	quan-	quan-	2f#X\	quan-	Quan-	.
.	.	.	.	.	.	2r	.	.	2f#X\	-do	-do,	2a\	-do	-do,	.
*	*	*	*	*	*	*	*	*	*custos:B	*	*	*	*	*	*
!	!	!	!	!	!	!	!	!	!LO:LB:g=original	!	!	!	!	!	!
=110-	=110-	=110-	=110-	=110-	=110-	=110-	=110-	=110-	=110-	=110-	=110-	=110-	=110-	=110-	=110-
1GG	.	.	.	.	.	1GG	quan-	quan-	2B\	quan-	quan-	2d\	quan-	quan-	.
.	.	.	.	.	.	.	.	.	2c#X\	-do	-do,	2e\	-do	-do	.
!	!	!	!	!	!	!	!	!	!	!	!	!LO:TX:a:t=P:problem:# above	!	!	!
2FF#X,</	6	.	.	.	.	2FF#X/	-do	-do	2d\	a-	a-	2f#X\i	a-	a-	.
!	!	!	!	!	!	!	!	!	!	!	!	!LO:LB:g=original	!	!	!
2GG/	.	.	.	.	.	2GG/	a-	a-	1d	-ma-	-ma-	2f#X\	-ma-	-ma-	.
1AA	4:3	.	.	.	.	2.AA/	-ma-	-ma-	.	.	.	(2e\	-bo	-bo	.
.	.	.	.	.	.	.	.	.	2c#X\	-bo	-bo	2f#X\)	.	.	.
.	.	.	.	.	.	4AA/	-bo	-bo	.	.	.	.	.	.	.
=111-	=111-	=111-	=111-	=111-	=111-	=111-	=111-	=111-	=111-	=111-	=111-	=111-	=111-	=111-	=111-
!LO:TX:t=P:problem:kreska pseudotaktowa	!	!	!	!	!	!	!	!	!	!	!	!	!	!	!
1.D	5:6 #	00.r	.	00.r	.	2D/	te	te,	1d	te	te,	2d\	te	te,	.
.	.	.	.	.	.	2D/	me-	me-	.	.	.	2f#X\	me-	me-	.
!	!	!	!	!	!	!	!	!	!LO:TX:t=P:problem:kreska pseudotaktowa	!	!	!	!	!	!
.	.	.	.	.	.	2D/	-a	-a	2r	.	.	2f#\	-a	-a	.
*	*	*	*	*	*	*custos:E	*	*	*	*	*	*	*	*	*
!	!	!	!	!	!	!LO:LB:g=original	!	!	!	!	!	!	!	!	!
1.E,<	.	.	.	.	.	1E	spes	spes,	2r	.	.	1g	spes	spes,	.
.	.	.	.	.	.	.	.	.	2.c#X\	vi-	vi-	.	.	.	.
.	.	.	.	.	.	2r	.	.	.	.	.	2r	.	.	.
.	.	.	.	.	.	.	.	.	4c#\	-ta	-ta	.	.	.	.
=112-	=112-	=112-	=112-	=112-	=112-	=112-	=112-	=112-	=112-	=112-	=112-	=112-	=112-	=112-	=112-
1D	.	.	.	.	.	2r	.	.	2d\	me-	me-	2r	.	.	.
.	.	.	.	.	.	2r	.	.	2d\	-a	-a,	2r	.	.	.
2G#X\	6	.	.	.	.	4G#X\	me-	me-	4B\	me-	me-	4e\	me-	me-	.
.	.	.	.	.	.	4G#\	-a	-a	4B\	-a	-a	4d\	-a	-a	.
!	!	!	!	!	!	!	!LO:SIC:v:s=2A\	!LO:SIC:v:s=2A\	!	!	!	!	!	!	!
1.A	-	.	.	.	.	2A\	spes	spes,	2B\	spes	spes,	2.c/	spes	spes,	.
.	.	.	.	.	.	2.AA/	vi-	vi-	2.A/	vi-	vi-	.	.	.	.
.	.	.	.	.	.	.	.	.	.	.	.	4d\	vi-	vi-	.
.	.	.	.	.	.	.	.	.	.	.	.	2e\	-ta	-ta	.
.	.	.	.	.	.	4AA/	-ta	-ta	4A/	-ta	-ta	.	.	.	.
*custos:D	*	*	*	*	*	*	*	*	*	*	*	*	*	*	*
!LO:LB:g=original	!	!	!	!	!	!	!	!	!	!	!	!	!	!	!
=113-	=113-	=113-	=113-	=113-	=113-	=113-	=113-	=113-	=113-	=113-	=113-	=113-	=113-	=113-	=113-
2D/	.	1.r	.	0.r	.	(<2D/	me-	me-	1A	me-	me-	(2c/	me-	me-	.
1E	4:3	.	.	.	.	1E)	.	.	.	.	.	1B)	.	.	.
.	.	.	.	.	.	.	.	.	(<2G#X/	a	a.	.	.	.	.
*	*	*custos:cc	*	*	*	*	*	*	*	*	*	*	*	*	*
!LO:TX:t=P:problem:kreska pseudotaktowa	!	!	!	!	!	!	!	!	!	!	!	!	!	!	!
!	!	!LO:LB:g=original	!	!	!	!	!	!	!	!	!	!	!	!	!
1.A	#	2r	.	.	.	1AA	-a	-a.	1A)	.	.	1A	-a	-a.	.
.	.	2cc#X\	.	.	.	.	.	.	.	.	.	.	.	.	.
.	.	2ee,<\	.	.	.	2r	.	.	2r	.	.	2r	.	.	.
!	!	!	!	!	!	!	!	!	!LO:LB:g=original	!	!	!	!	!	!
=114-	=114-	=114-	=114-	=114-	=114-	=114-	=114-	=114-	=114-	=114-	=114-	=114-	=114-	=114-	=114-
1.F#X	.	1a	.	2r	.	0.r	.	.	0.r	.	.	0.r	.	.	.
.	.	.	.	2ff#X\	.	.	.	.	.	.	.	.	.	.	.
!	!	!	!	!LO:SIC:s=2aa,\	!	!	!	!	!	!	!	!	!	!	!
.	.	2a,</	.	2aa\	.	.	.	.	.	.	.	.	.	.	.
*	*	*	*	*custos:dd	*	*	*	*	*	*	*	*	*	*	*
!	!	!	!	!LO:LB:g=original	!	!	!	!	!	!	!	!	!	!	!
1G	.	2b/	.	2dd\	.	.	.	.	.	.	.	.	.	.	.
.	.	2cc#X\	.	2ee\	.	.	.	.	.	.	.	.	.	.	.
2F#X,<\	.	2dd,<\	.	2ff#X,<\	.	.	.	.	.	.	.	.	.	.	.
=115-	=115-	=115-	=115-	=115-	=115-	=115-	=115-	=115-	=115-	=115-	=115-	=115-	=115-	=115-	=115-
2G\	.	1dd	.	2ff#X\	.	1.r	.	.	1.r	.	.	2r	.	.	.
2A\	.	.	.	1ee,<	.	.	.	.	.	.	.	2e\	me-	Me-	.
!LO:TX:t=P:problem:kreska pseudotaktowa	!	!LO:SIC:s=2cc#X\,	!	!	!	!	!	!	!	!	!	!	!	!	!
2AA/	.	2cc#X\	.	.	.	.	.	.	.	.	.	2e\	-a	-a	.
2D/	.	1dd	.	1dd	.	2r	.	.	2r	.	.	1f#X	spes	spes,	.
1F#X,<	6	.	.	.	.	2F#X\	vi-	Vi-	2A/	vi-	Vi-	.	.	.	.
.	.	2r	.	2r	.	2F#\	-ta	-ta	2A/	-ta	-ta	2r	.	.	.
=116-	=116-	=116-	=116-	=116-	=116-	=116-	=116-	=116-	=116-	=116-	=116-	=116-	=116-	=116-	=116-
1.G	.	2r	.	2r	.	2G\	me-	me-	2B\	me-	me-	1.r	.	.	.
.	.	2b/	.	2dd\	.	2G\	-a	-a,	2B\	-a	-a,	.	.	.	.
!	!	!	!	!	!	!	!	!	!LO:TX:t=P:problem:kreska pseudotaktowa	!	!	!	!	!	!
.	.	2b,</	.	2dd,<\	.	2r	.	.	2r	.	.	.	.	.	.
!LO:TX:t=P:problem:kreska pseudotaktowa	!	!	!	!	!	!	!	!	!	!	!	!	!	!	!
1.E	6	2cc\	.	2ee\	.	2r	.	.	2r	.	.	2r	.	.	.
.	.	2cc\	.	2gg\	.	2E\	me-	me-	2c\	me-	me-	2g\	me-	me-	.
!	!	!	!	!	!	!LO:TX:t=P:problem:kreska pseudotaktowa	!	!	!	!	!	!	!	!	!
.	.	2cc,<\	.	2gg,<\	.	2E\	-a	-a	2B\	-a	-a	2g\	-a	-a	.
!	!	!	!	!	!	!	!	!	!	!	!	!LO:PB:g=original	!	!	!
=117-	=117-	=117-	=117-	=117-	=117-	=117-	=117-	=117-	=117-	=117-	=117-	=117-	=117-	=117-	=117-
1F	.	1cc	.	2ff\	.	2F\	spes	spes,	2A/	spes	spes,	2a\	spes	spes,	.
.	.	.	.	2aa\	.	2F\	vi-	vi-	2B\	vi-	vi-	2f\	vi-	vi-	.
2C/	.	2cc,<\	.	2gg,<\	.	2C/	-ta	-ta	2c\	-ta	-ta	2e\	-ta	-ta	.
2F\	.	2cc\	.	2aa\	.	(2F\	me-	me-	1c	me-	me-	(2e\	me-	me-	.
2G\	.	1g	.	2.gg\	.	1G)	.	.	.	.	.	1d)	.	.	.
!LO:TX:t=P:problem:kreska pseudotaktowa	!	!	!	!	!	!	!	!	!	!	!	!	!	!	!
2GG/	.	.	.	.	.	.	.	.	(2B\	-a	-a,	.	.	.	.
.	.	.	.	4ff\	.	.	.	.	.	.	.	.	.	.	.
!	!	!	!	!	!	!LO:LB:g=original	!	!	!	!	!	!	!	!	!
=118-	=118-	=118-	=118-	=118-	=118-	=118-	=118-	=118-	=118-	=118-	=118-	=118-	=118-	=118-	=118-
1.C	.	1g	.	1ee	.	1C	-a	-a,	2c\)	.	.	2c/	-a	-a,	.
.	.	.	.	.	.	.	.	.	2e\	me-	me-	2g\	me-	me-	.
.	.	2r	.	2r	.	2r	.	.	2e\	-a	-a	2g\	-a	-a	.
!LO:TX:t=P:problem:kreska pseudotaktowa	!	!	!	!	!	!	!	!	!	!	!	!	!	!	!
1.AA	.	2r	.	0.r	.	2r	.	.	1f	spes.	spes,	1a	spes	spes,	.
.	.	2cc\	.	.	.	2AA/	me-	me-	.	.	.	.	.	.	.
!	!	!	!	!	!	!	!	!	!	!	!	!LO:TX:t=P:problem:kreska pseudotaktowa	!	!	!
.	.	2cc,<\	.	.	.	2AA/	-a	-a	2r	.	.	2r	.	.	.
!	!	!	!	!	!	!	!	!	!LO:PB:g=original	!	!	!	!	!	!
=119-	=119-	=119-	=119-	=119-	=119-	=119-	=119-	=119-	=119-	=119-	=119-	=119-	=119-	=119-	=119-
2BB-X/	5	2dd\	.	.	.	2BB-X/	spes	spes,	2r	.	.	2r	.	.	.
!LO:N:acc=#	!	!	!	!	!	!LO:N:acc=#	!	!	!	!	!	!	!	!	!
1BBn,<	6	2.dd\	.	.	.	2.BBn/	vi-	vi-	2.d\	vi-	vi-	2.g\	vi-	vi-	.
.	.	4dd,<\	.	.	.	4BB/	-ta	-ta	4d\	-ta	-ta	4f\	-ta	-ta	.
1C	9	1ee	.	2r	.	2C/	me-	me-	2d\	me-	me-	2e\	me-	me-	.
.	.	.	.	2.aa\	.	2C/	-a	-a,	2c\	-a	-a.	2e\	-a	-a.	.
!LO:TX:t=P:problem:kreska pseudotaktowa	!	!LO:SIC:s=2ee,\	!	!	!	!	!	!	!	!	!	!	!	!	!
2C#X/	#	2ee\	.	.	.	4C#X/	me-	me-	2r	.	.	2r	.	.	.
.	.	.	.	4gg,<\	.	4C#/	-a	-a	.	.	.	.	.	.	.
*	*	*custos:dd	*	*	*	*	*	*	*	*	*	*	*	*	*
!	!	!LO:LB:g=original	!	!	!	!	!	!	!	!	!	!	!	!	!
=120-	=120-	=120-	=120-	=120-	=120-	=120-	=120-	=120-	=120-	=120-	=120-	=120-	=120-	=120-	=120-
2D/	.	2.dd\	.	2ff#X\	.	2D/	spes	spes,	0.r	.	.	0.r	.	.	.
2BB/	.	.	.	2gg\	.	2r	.	.	.	.	.	.	.	.	.
.	.	4dd\	.	.	.	.	.	.	.	.	.	.	.	.	.
2C/	.	4cc\	.	2gg,<\	.	2r	.	.	.	.	.	.	.	.	.
!	!	!LO:SIC:s=4b,\	!	!	!	!	!	!	!	!	!	!	!	!	!
.	.	4b/	.	.	.	.	.	.	.	.	.	.	.	.	.
1.D	#	1a	.	1dd	.	2r	.	.	.	.	.	.	.	.	.
.	.	.	.	.	.	2.F#X\	vi-	vi-	.	.	.	.	.	.	.
.	.	2a/	.	2dd\	.	.	.	.	.	.	.	.	.	.	.
.	.	.	.	.	.	4F#\	-ta	-ta	.	.	.	.	.	.	.
*custos:GG	*	*	*	*	*	*	*	*	*	*	*	*	*	*	*
!LO:LB:g=original	!	!	!	!	!	!	!	!	!	!	!	!	!	!	!
=121-	=121-	=121-	=121-	=121-	=121-	=121-	=121-	=121-	=121-	=121-	=121-	=121-	=121-	=121-	=121-
1.GG	.	1b	.	1dd	.	2G\	me-	me-	2r	.	.	2r	.	.	.
.	.	.	.	.	.	2G\	-a	-a.	2B\	me-	Me-	2d\	me-	Me-	.
!	!	!	!	!	!	!	!	!	!LO:TX:t=P:problem:kreska pseudotaktowa	!	!	!	!	!	!
.	.	2r	.	2r	.	2r	.	.	2B\	-a	-a	2d\	-a	-a	.
!	!	!LO:TX:a:t=3.:mod=	!	!LO:TX:a:t=3.:mod=	!	!LO:TX:a:t=3:mod=	!	!	!	!	!	!	!	!	!
2C/	.	0.r	.	0.r	.	0.r	.	.	2c\	spes	spes,	2e\	spes	spes,	.
!LO:TX:t=P:problem:kreska pseudotaktowa	!	!	!	!	!	!	!	!	!	!	!	!	!	!	!
1E	6	.	.	.	.	.	.	.	2c\	qua(n)-	quan-	2e\	qua(n)-	quan-	.
!	!	!	!	!	!	!	!	!	!	!	!	!LO:TX:t=P:problem:kreska pseudotaktowa	!	!	!
.	.	.	.	.	.	.	.	.	2e\	-do	-do,	2g\	-do	-do,	.
=122-	=122-	=122-	=122-	=122-	=122-	=122-	=122-	=122-	=122-	=122-	=122-	=122-	=122-	=122-	=122-
1F	.	.	.	.	.	.	.	.	2A/	qua(n)-	quan-	2c/	quan-	quan-	.
.	.	.	.	.	.	.	.	.	2B\	-do	-do	2d\	-do	-do	.
2E\	6	.	.	.	.	.	.	.	2c\	a-	a-	2e\	a-	a-	.
!	!	!	!	!	!	!	!	!	!	!	!	!LO:LB:g=original	!	!	!
2F\	.	1.r	.	1.r	.	1.r	.	.	1c	-ma-	-ma-	2e\	-ma-	-ma-	.
2G\	.	.	.	.	.	.	.	.	.	.	.	(2d\	-bo	-bo	.
!LO:TX:t=P:problem:kreska pseudotaktowa	!	!	!	!	!	!	!	!	!	!	!	!	!	!	!
2GG/	.	.	.	.	.	.	.	.	2B\	-bo	-bo	2e\)	.	.	.
=123-	=123-	=123-	=123-	=123-	=123-	=123-	=123-	=123-	=123-	=123-	=123-	=123-	=123-	=123-	=123-
1.C	.	2r	.	2r	.	2r	.	.	1c	te	te,	1c	te	te,	.
.	.	2cc\	.	2ee\	.	2C/	me-	Me-	.	.	.	.	.	.	.
!	!	!	!	!LO:SIC:s=2ee,\	!	!	!	!	!	!	!	!	!	!	!
.	.	2cc,<\	.	2ee\	.	2C/	-a	-a	2r	.	.	2r	.	.	.
*	*	*	*	*custos:ff	*	*	*	*	*	*	*	*	*	*	*
!	!	!	!	!LO:LB:g=original	!	!	!	!	!	!	!	!	!	!	!
2D/	-6	1b-X	.	2ff\	.	2D/	spes	spes,	1.r	.	.	1.r	.	.	.
1E,<	6	.	.	2.gg\	.	2.E\	vi-	vi-	.	.	.	.	.	.	.
.	.	2b-,</	.	.	.	.	.	.	.	.	.	.	.	.	.
.	.	.	.	4gg\	.	4E\	-ta	-ta	.	.	.	.	.	.	.
*	*	*	*	*	*	*	*	*	*custos:A	*	*	*	*	*	*
!	!	!	!	!	!	!LO:LB:g=original	!	!	!LO:LB:g=original	!	!	!	!	!	!
=124-	=124-	=124-	=124-	=124-	=124-	=124-	=124-	=124-	=124-	=124-	=124-	=124-	=124-	=124-	=124-
!LO:TX:t=P:problem:kreska pseudotaktowa	!	!	!	!	!	!	!	!	!	!	!	!	!	!	!
[1.F	.	1.a	.	1.aa	.	1.F	me-	me-	2r	.	.	2r	.	.	.
.	.	.	.	.	.	.	.	.	2A/	me-	me-	2c/	me-	me-	.
.	.	.	.	.	.	.	.	.	2A/	-a	-a	2c/	-a	-a	.
!	!	!LO:TX:a:t=4.:mod=	!	!LO:TX:a:t=4.:mod=	!	!	!	!	!	!	!	!	!	!	!
2F\]	6 # 2	1.r	.	00.r	.	2F\	-a	-a,	2B\	spes	spes,	2d\	spes	spes,	.
1E,<	6	.	.	.	.	2.E\	vi-	vi-	2.c#X\	vi-	vi-	2.e\	vi-	vi-	.
!	!	!	!	!	!	!	!	!	!LO:TX:t=P:problem:kreska pseudotaktowa	!	!	!LO:TX:t=P:problem:kreska pseudotaktowa	!	!	!
.	.	.	.	.	.	4E\	-ta	-ta	4c#\	-ta	-ta	4e\	-ta	-ta	.
=125-	=125-	=125-	=125-	=125-	=125-	=125-	=125-	=125-	=125-	=125-	=125-	=125-	=125-	=125-	=125-
1D	-	0.r	.	.	.	2D/	me-	me-	2d\	me-	me-	2f\	me-	me-	.
.	.	.	.	.	.	2D/	-a	-a,	2d\	-a	-a,	2f\	-a	-a,	.
!LO:TX:t=P:problem:kreska pseudotaktowa	!	!	!	!	!	!	!	!	!	!	!	!	!	!	!
2BB/	6	.	.	.	.	4BB/	me-	me-	4d\	me-	me-	4g\	me-	me-	.
!	!	!	!	!	!	!	!	!	!LO:TX:t=P:problem:kreska pseudotaktowa	!	!	!	!	!	!
.	.	.	.	.	.	4BB/	-a	-a	4e\	-a	-a	4f\	-a	-a	.
2C/	.	.	.	.	.	2C/	spes	spes,	2c\	spes	spes,	2e\	spes	spes,	.
2D/	.	.	.	.	.	2D/	vi-	vi-	2c\	vi-	vi-	2f#X\	vi-	vi-	.
2E\	.	.	.	.	.	2E\	-ta	-ta	2B\	-ta	-ta	2g\	-ta	-ta	.
=126-	=126-	=126-	=126-	=126-	=126-	=126-	=126-	=126-	=126-	=126-	=126-	=126-	=126-	=126-	=126-
2C/	.	1.r	.	.	.	(<2C/	me-	me-	(2B\	me-	me-	(1g	me-	me-	.
!LO:TX:t=P:problem:kreska pseudotaktowa	!	!	!	!	!	!	!	!	!	!	!	!	!	!	!
1D	4:3	.	.	.	.	1D)	.	.	1A)	.	.	.	.	.	.
.	.	.	.	.	.	.	.	.	.	.	.	2f#X\)	.	.	.
1.GG	.	2r	.	2r	.	1.GG	-a	-a.	1G	-a	-a.	1g	-a	-a.	.
.	.	2g/	.	2b/	.	.	.	.	.	.	.	.	.	.	.
.	.	2b,</	.	2dd,<\	.	.	.	.	2r	.	.	2r	.	.	.
=127-	=127-	=127-	=127-	=127-	=127-	=127-	=127-	=127-	=127-	=127-	=127-	=127-	=127-	=127-	=127-
1C	.	2e/	.	2g/	.	0.r	.	.	00.r	.	.	00.r	.	.	.
.	.	2f#X/	.	2a/	.	.	.	.	.	.	.	.	.	.	.
2BB/	6	2g,</	.	2b,</	.	.	.	.	.	.	.	.	.	.	.
2C/	.	1g	.	2b/	.	.	.	.	.	.	.	.	.	.	.
!LO:TX:t=P:problem:kreska pseudotaktowa	!	!	!	!	!	!	!	!	!	!	!	!	!	!	!
1D	4:3	.	.	2a/	.	.	.	.	.	.	.	.	.	.	.
.	.	2f#X,</	.	2b,</	.	.	.	.	.	.	.	.	.	.	.
=128-	=128-	=128-	=128-	=128-	=128-	=128-	=128-	=128-	=128-	=128-	=128-	=128-	=128-	=128-	=128-
1.GG,<	.	2g/	.	2g/	.	1.r	.	.	.	.	.	.	.	.	.
.	.	2b/	.	2dd\	.	.	.	.	.	.	.	.	.	.	.
.	.	2b,</	.	2dd,<\	.	.	.	.	.	.	.	.	.	.	.
2GG/	6	2b/	.	2ee\	.	2r	.	.	.	.	.	.	.	.	.
1AA,<	# 6	2.cc#X\	.	2.ff#X\	.	2AA/	me-	Me-	.	.	.	.	.	.	.
.	.	.	.	.	.	2AA/	-a	-a	.	.	.	.	.	.	.
!	!	!LO:SIC:s=4cc#,\	!	!	!	!	!	!	!	!	!	!	!	!	!
.	.	4cc#\	.	4ff#,<\	.	.	.	.	.	.	.	.	.	.	.
*	*	*custos:dd	*	*	*	*	*	*	*	*	*	*	*	*	*
!	!	!LO:LB:g=original	!	!	!	!	!	!	!	!	!	!	!	!	!
=129-	=129-	=129-	=129-	=129-	=129-	=129-	=129-	=129-	=129-	=129-	=129-	=129-	=129-	=129-	=129-
2BB/	6	2dd\	.	1gg	.	2BB/	spes	spes,	0.r	.	.	1.r	.	.	.
1C#X	-6 5	[1ee	.	.	.	2.C#X/	vi-	vi-	.	.	.	.	.	.	.
.	.	.	.	2gg\	.	.	.	.	.	.	.	.	.	.	.
.	.	.	.	.	.	4C#/	-ta	-ta	.	.	.	.	.	.	.
*custos:D	*	*	*	*	*	*	*	*	*	*	*	*	*	*	*
!LO:LB:g=original	!	!	!	!	!	!	!	!	!	!	!	!	!	!	!
1.D	#	2ee\]	.	1ff#X	.	2D/	me-	me-	.	.	.	2r	.	.	.
!	!	!	!	!	!	!	!	!	!	!	!	!LO:TX:a:t=P:problem:# above	!	!	!
.	.	1dd	.	.	.	2D/	-a	-a.	.	.	.	2f#X\i	qŭan-	Quan-	.
.	.	.	.	2r	.	2r	.	.	.	.	.	2a\	-do	-do,	.
*	*	*	*	*	*	*	*	*	*custos:B	*	*	*	*	*	*
!	!	!	!	!	!	!	!	!	!LO:LB:g=original	!	!	!LO:LB:g=original	!	!	!
=130-	=130-	=130-	=130-	=130-	=130-	=130-	=130-	=130-	=130-	=130-	=130-	=130-	=130-	=130-	=130-
!	!	!LO:TX:a:t=3.:mod=	!	!LO:TX:a:t=3.:mod=	!	!	!	!	!	!	!	!	!	!	!
1.BB,<	6	0.r	.	0.r	.	00.r	.	.	2r	.	.	2d\	qua(n)-	quan-	.
.	.	.	.	.	.	.	.	.	2B\	quan-	Quan-	2d\	-do	-do	.
.	.	.	.	.	.	.	.	.	2d\	-do	-do,	2d\	a-	a-	.
1C	.	.	.	.	.	.	.	.	2G/	qua(n)-	quan-	2e\	-ma-	-ma-	.
.	.	.	.	.	.	.	.	.	2A/	-do	-do	2f#X\	-bo	-bo,	.
!LO:TX:t=P:problem:kreska pseudotaktowa	!	!	!	!	!	!	!	!	!	!	!	!	!	!	!
2BB/	.	.	.	.	.	.	.	.	2B\	a-	a-	2g\	a-	a-	.
=131-	=131-	=131-	=131-	=131-	=131-	=131-	=131-	=131-	=131-	=131-	=131-	=131-	=131-	=131-	=131-
2C/	.	1.r	.	1.r	.	.	.	.	2B\	-ma-	-ma-	1g	-ma-	-ma-	.
1D,<	.	.	.	.	.	.	.	.	(2.A\	-bo	-bo	.	.	.	.
.	.	.	.	.	.	.	.	.	.	.	.	2f#X\	-bo	-bo	.
.	.	.	.	.	.	.	.	.	4B\)	.	.	.	.	.	.
1GG	.	2r	.	2r	.	.	.	.	1G	te	te,	1g	te	te,	.
.	.	2g/	.	2b/	.	.	.	.	.	.	.	.	.	.	.
!LO:TX:t=P:problem:kreska pseudotaktowa	!	!	!	!	!	!	!	!	!	!	!	!	!	!	!
2G\	.	2g,</	.	2b,</	.	.	.	.	2r	.	.	2r	.	.	.
=132-	=132-	=132-	=132-	=132-	=132-	=132-	=132-	=132-	=132-	=132-	=132-	=132-	=132-	=132-	=132-
2F\	.	2a/	.	2cc\	.	0.r	.	.	1.r	.	.	1.r	.	.	.
1D,<	# 6	2.b/	.	2.dd\	.	.	.	.	.	.	.	.	.	.	.
!	!	!	!	!LO:SIC:s=4dd,\	!	!	!	!	!	!	!	!	!	!	!
.	.	4b,</	.	4dd\	.	.	.	.	.	.	.	.	.	.	.
[1.C	.	1cc	.	1ee	.	.	.	.	2r	.	.	2r	.	.	.
.	.	.	.	.	.	.	.	.	2G/	me-	me-	2e\	me-	me-	.
!	!	!	!	!LO:SIC:s=2ee,\	!	!	!	!	!	!	!	!	!	!	!
.	.	2cc,<\	.	2ee\	.	.	.	.	2G/	-a	-a	2e\	-a	-a	.
=133-	=133-	=133-	=133-	=133-	=133-	=133-	=133-	=133-	=133-	=133-	=133-	=133-	=133-	=133-	=133-
2C/]	# 6	2a/	.	1dd	.	1.r	.	.	2A/	spes	spes,	2f#X\	spes	spes,	.
!LO:TX:t=P:problem:kreska pseudotaktowa	!	!	!	!	!	!	!	!	!	!	!	!	!	!	!
1BB	.	1g#X,<	.	.	.	.	.	.	2.B\	vi-	vi-	2.g#X\	vi-	vi-	.
!	!	!	!	!LO:SIC:s=2dd,\	!	!	!	!	!	!	!	!	!	!	!
.	.	.	.	2dd\	.	.	.	.	.	.	.	.	.	.	.
.	.	.	.	.	.	.	.	.	4B\	-ta	-ta	4g#\	-ta	-ta	.
*	*	*	*	*custos:cc	*	*	*	*	*	*	*	*	*	*	*
!	!	!	!	!LO:LB:g=original	!	!LO:LB:g=original	!	!	!	!	!	!	!	!	!
1AA	-	1.cc,<	.	2cc\	.	2r	.	.	2c\	me-	me-	2a\	me-	me-	.
.	.	.	.	2aa\	.	2AA/	me-	Me-	2c\	-a	-a,	2a\	-a	-a,	.
2AA,</	.	.	.	2aa,<\	.	2AA/	-a	-a	4c\	me-	me-	4a\	me-	me-	.
.	.	.	.	.	.	.	.	.	4c\	-a	-a	4b\	-a	-a	.
*	*	*	*	*	*	*	*	*	*custos:d	*	*	*	*	*	*
!	!	!	!	!	!	!	!	!	!LO:LB:g=original	!	!	!	!	!	!
=134-	=134-	=134-	=134-	=134-	=134-	=134-	=134-	=134-	=134-	=134-	=134-	=134-	=134-	=134-	=134-
2BB/	.	2b/	.	2dd\	.	2BB/	spes	spes,	2d\	spes	spes,	2g\	spes	spes,	.
!LO:TX:t=P:problem:kreska pseudotaktowa	!	!	!	!	!	!	!	!	!	!	!	!	!	!	!
1C#X	.	1a,<	.	2gg\	.	2.C#X/	vi-	vi-	2.e\	vi-	vi-	2.g\	vi-	vi-	.
.	.	.	.	2ee,<\	.	.	.	.	.	.	.	.	.	.	.
.	.	.	.	.	.	4C#/	-ta	-ta	4e\	-ta	-ta	4f#X\	-ta	-ta	.
*	*	*	*	*	*	*	*	*	*	*	*	*custos:f#	*	*	*
!	!	!	!	!	!	!	!	!	!	!	!	!LO:LB:g=original	!	!	!
1D	.	1a	.	1dd	.	2D/	me-	me-	2A/	me-	me-	2f#X\	me-	me-	.
.	.	.	.	.	.	2D/	-a	-a,	2A/	-a	-a,	2f#\	-a	-a,	.
!	!	!	!	!LO:SIC:s=2dd,\	!	!	!	!	!	!	!	!	!	!	!
2BB,</	6	2b,</	.	2dd\	.	4BB/	me-	me-	4d\	me-	me-	4g\	me-	me-	.
!	!	!	!	!	!	!	!	!	!	!	!	!LO:SIC:s=4fn\	!	!	!
.	.	.	.	.	.	4BB/	-a	-a	4d\	-a	-a	4fny\	-a	-a	.
=135-	=135-	=135-	=135-	=135-	=135-	=135-	=135-	=135-	=135-	=135-	=135-	=135-	=135-	=135-	=135-
2C/	.	2g/	.	1ee	.	2C/	spes	spes,	2c\	spes	spes,	2e\	spes	spes,	.
!LO:TX:t=P:problem:kreska pseudotaktowa	!	!	!	!	!	!	!	!	!	!	!	!	!	!	!
1AA	.	1a,<	.	.	.	2.AA/	vi-	vi-	2.e\	vi-	vi-	2.a\	vi-	vi-	.
!	!	!	!	!LO:SIC:s=2ee,\	!	!	!	!	!	!	!	!	!	!	!
.	.	.	.	2ee\	.	.	.	.	.	.	.	.	.	.	.
!	!	!	!	!	!	!	!	!	!LO:TX:t=P:problem:kreska pseudotaktowa	!	!	!	!	!	!
.	.	.	.	.	.	4AA/	-ta	-ta	4e\	-ta	-ta	4b\	-ta	-ta	.
!	!	!	!	!LO:SIC:s=1.b,	!	!LO:TX:t=P:problem:kreska pseudotaktowa	!	!	!	!	!	!	!	!	!
1.BB	4:3	2r	.	1.b	.	1.BB	me-	me-	1e	me-	me-	(2g\	me-	me-	.
.	.	2r	.	.	.	.	.	.	.	.	.	1f#X)	.	.	.
.	.	2f#X,</	.	.	.	.	.	.	(2d#X\	-a	-a,	.	.	.	.
=136-	=136-	=136-	=136-	=136-	=136-	=136-	=136-	=136-	=136-	=136-	=136-	=136-	=136-	=136-	=136-
2E\	.	2g/	.	2b/	.	2E\	-a	-a,	2e\)	.	.	2e\	-a	-a,	.
!LO:TX:t=P:problem:kreska pseudotaktowa	!	!	!	!	!	!	!	!	!	!	!	!	!	!	!
1C#X	6	1a,<	.	2cc#X\	.	2.C#X/	vi-	vi-	2.e\	vi-	vi-	2.a\	me-	me-	.
!	!	!	!	!LO:SIC:s=2ee,\	!	!	!	!	!	!	!	!	!	!	!
.	.	.	.	2ee\	.	.	.	.	.	.	.	.	.	.	.
.	.	.	.	.	.	4C#/	-ta	-ta	4e\	-ta	-ta	4g\	-a	-a	.
1.D,<	#	2a/	.	1ff#X	.	2D/	me-	me-	2d\	me-	me-	2.f#X\	spes	spes,	.
.	.	2d/	.	.	.	2.D/	-a	-a,	2.d\	-a	-a,	.	.	.	.
.	.	.	.	.	.	.	.	.	.	.	.	4g\	vi-	vi-	.
.	.	[>[<2a/	.	2ff#\	.	.	.	.	.	.	.	2a\	-ta	-ta	.
.	.	.	.	.	.	4D\	spes	spes	4c\	spes	spes	.	.	.	.
*	*	*custos:a	*	*	*	*	*	*	*	*	*	*	*	*	*
!	!	!LO:LB:g=original	!	!	!	!	!	!	!	!	!	!	!	!	!
=137-	=137-	=137-	=137-	=137-	=137-	=137-	=137-	=137-	=137-	=137-	=137-	=137-	=137-	=137-	=137-
!	!	!LO:TX:t=P:problem: ligatura od dołu i od góry	!	!	!	!	!	!	!	!	!	!	!	!	!
1.E	4:3	2a/]]	.	1.ee	.	(2E\	me-	me-	(2c\	me-	me-	1a	me-	me-	.
.	.	1e	.	.	.	1EE)	.	.	1B)	.	.	.	.	.	.
.	.	.	.	.	.	.	.	.	.	.	.	(2g#X\	-a	-a.	.
!	!	!	!	!	!	!	!	!	!LO:LB:g=original	!	!	!	!	!	!
=138||-	=138||-	=138||-	=138||-	=138||-	=138||-	=138||-	=138||-	=138||-	=138||-	=138||-	=138||-	=138||-	=138||-	=138||-	=138||-
*M2/1	*	*M2/1	*	*M2/1	*	*M2/1	*	*	*M2/1	*	*	*M2/1	*	*	*
*met(C)	*	*met(C)	*	*met(C|)	*	*met(C|)	*	*	*met(C)	*	*	*met(C)	*	*	*
1AA;,<	#	2e/	.	2.cc#X\	.	2AA/	-a	-a.	8c#X\	-a	-a.	2a\)	.	.	.
.	.	.	.	.	.	.	.	.	8e\	et	Et	.	.	.	.
.	.	.	.	.	.	.	.	.	8c#X\	si-	si-	.	.	.	.
.	.	.	.	.	.	.	.	.	8e\	-ne	-ne	.	.	.	.
.	.	4.a/	.	.	.	2r	.	.	4A/	te	te,	8r	.	.	.
.	.	.	.	.	.	.	.	.	.	.	.	8a\	et	Et	.
!	!	!	!	!LO:SIC:s=4ee,\	!	!	!	!	!	!	!	!	!	!	!
.	.	.	.	4ee\	.	.	.	.	8.c#X\	si-	si-	8g\	si-	si-	.
.	.	8a,</	.	.	.	.	.	.	.	.	.	8a\	-ne	-ne	.
.	.	.	.	.	.	.	.	.	16c#\	-ne	-ne	.	.	.	.
!	!	!	!	!	!	!LO:LB:g=original	!	!	!	!	!	!	!	!	!
4D/	.	8a/L	.	4.ff#X\	.	8r	.	.	4d\	te	te,	4f#X\	te	te,	.
!	!	!LO:TX:b:t=P:problem:# below	!	!	!	!	!	!	!	!	!	!	!	!	!
.	.	8f#X/	.	.	.	8D/	et	Et	.	.	.	.	.	.	.
8C/L	.	8e/	.	.	.	8C/	si-	si-	4r	.	.	4r	.	.	.
!	!	!LO:TX:b:t=P:problem:# below	!	!	!	!	!	!	!	!	!	!	!	!	!
8D/J	.	8f#X/J	.	8ff#\	.	8D/	-ne	-ne	.	.	.	.	.	.	.
!	!	!	!	!	!	!	!	!	!	!	!	!LO:LB:g=original	!	!	!
2BB/	6	2d,</	.	2gg\	.	4.BB/	te	te	8r	.	.	8r	.	.	.
.	.	.	.	.	.	.	.	.	8B\	et	et	8g\	et	et	.
.	.	.	.	.	.	.	.	.	8A\	si-	si-	8f#X\	si-	si-	.
!	!	!	!	!	!	!LO:TX:t=P:problem:kreska pseudotaktowa	!	!	!LO:TX:t=P:problem:kreska pseudotaktowa	!	!	!LO:TX:t=P:problem:kreska pseudotaktowa	!	!	!
.	.	.	.	.	.	8BB/	est	est	8B\	-ne	-ne	8g\	-ne	-ne	.
*custos:C	*	*	*	*	*	*	*	*	*	*	*	*	*	*	*
!LO:LB:g=original	!	!	!	!	!	!	!	!	!	!	!	!	!	!	!
=139-	=139-	=139-	=139-	=139-	=139-	=139-	=139-	=139-	=139-	=139-	=139-	=139-	=139-	=139-	=139-
4C/	.	4e/	.	2r	.	4C/	vi-	vi-	4G/	te	te	4.e\	te	te	.
8E\L	.	8g/L	.	.	.	8E\	-ta	-ta,	4c\	est	est	.	.	.	.
8F\J	.	8a/J	.	.	.	8F\	est	est	.	.	.	8d\	est	est	.
!LO:TX:t=P:problem:kreska pseudotaktowa	!	!	!	!	!	!	!	!	!	!	!	!	!	!	!
2G\	4:3	2g/	.	8r	.	4.G\	vi-	vi-	4.c\	vi-	vi-	4.d\	vi-	vi-	.
.	.	.	.	8gg\L	.	.	.	.	.	.	.	.	.	.	.
.	.	.	.	8ff\	.	.	.	.	.	.	.	.	.	.	.
.	.	.	.	8gg\J	.	8GG/	-ta	-ta	8B\	-ta	-ta	8d\	-ta	-ta	.
*	*	*	*	*custos:ee	*	*	*	*	*	*	*	*	*	*	*
!	!	!	!	!LO:LB:g=original	!	!	!	!	!LO:LB:g=original	!	!	!	!	!	!
2C/	.	4.g/	.	4ee\	.	4.C/	mors	mors,	4.c\	mors	mors,	4.e\	mors	mors,	.
.	.	.	.	4gg\	.	.	.	.	.	.	.	.	.	.	.
.	.	8cc\	.	.	.	8C/	est	est	8G/	est	est	8e\	est	est	.
4F\	.	4cc\	.	4ff\	.	4F\	vi-	vi-	4A/	vi-	vi-	4f\	vi-	vi-	.
4E\	6	8ee\L	.	8cc\L	.	8E\	-ta	-ta,	8G/	-ta	-ta,	8g\	-ta	-ta,	.
.	.	8ee\J	.	8cc\J	.	8E\	est	est	8G/	est	est	8g\	est	est	.
=140-	=140-	=140-	=140-	=140-	=140-	=140-	=140-	=140-	=140-	=140-	=140-	=140-	=140-	=140-	=140-
1F	.	1a	.	1cc	.	2.F\	vi-	vi-	2.A/	vi-	vi-	2.f\	vi-	vi-	.
.	.	.	.	.	.	4FF/	-ta	-ta	4A/	-ta	-ta	4f\	-ta	-ta	.
!LO:TX:t=P:problem: 2 breves zamiast longi	!	!	!	!LO:TX:t=P:problem: 2 breves zamiast longi	!	!LO:TX:t=P:problem: 2 breves zamiast longi	!	!	!LO:TX:t=P:problem: 2 breves zamiast longi	!	!	!LO:TX:t=P:problem: 2 breves zamiast longi	!	!	!
!LO:SIC:s=1C;l	!	!LO:SIC:s=1cc;l	!	!LO:SIC:s=1ee;l	!	!LO:SIC:s=1C;l	!	!	!LO:SIC:s=1G;l	!	!	!LO:SIC:s=1e;l	!	!	!
1C;;ll	.	1cc;;ll	.	1ee;;ll	.	1C;ll	mors.	mors.	1G;ll	mors.	mors.	1e;<ll	mors.	mors.	.
==	==	==	==	==	==	==	==	==	==	==	==	==	==	==	==
*-	*-	*-	*-	*-	*-	*-	*-	*-	*-	*-	*-	*-	*-	*-	*-
!!!system-decoration: [(g1)][(g2)](s6)
!!!RDF**kern: > = above
!!!RDF**kern: < = below
!!!RDF**kern: l = terminal long
!!LO:MO:ori
!!!RDF**kern: i = editorial accidental
!!LO:MO:end
!!!filter-modern: shed -e "s/:t=P:/:T=P:/L"
!!!filter-modern: shed -e "s/-//B"
!!!filter-modern: shed -e "s/^(\d+[\/\\]right)/$1yy/I; s/^(\d+[\/\\]left)/$1yy/I"
!!!filter-modern: humtr -p
!!!filter-modern: shed -e "s/^custos:/Xcustos:/I"
!!!filter-modern: shed -e "s/yy//"
!!!filter-modern: shed -k -e "s/\(y(?!y)/(/"
!!!filter-modern: shed -k -e "s/([\(\)\[\]])[><]/$1/g"
!!!filter-modern: shed -k -e “s/([()[]_])[><]/$1/g”
!!!filter-modern: tie -s
!!!filter-modern: shed -e "s/^(X?)rep$/$1REP/I"
!!!filter-modern: shed -k -e "s/^(X?)tuplet/$1TUPLET/I"
!!!filter-modern: shed -e "s/LO:DY:(a|b|rj)/LO:dy:$1/L"
!!!filter-modern: shed -e "s/LO:HP:(a|b)/LO:hp:$1/L"
!!!filter-modern: shed -k -e "s/r[a-gA-G]+/r/D"
!!!filter-modern: shed -k -e "s/([^a-gA-Gn#-])[<>]/$1/g"
!!!filter-modern: sic -sq
!!!filter-modern: autostem -r
!!!filter-modern: modori -m
!!!ENC: Andrzej Kubiczek
!!!END: 2022-02-02
!!!EED: Jan Barakat
!!!EEV: 2022-02-19
!!!ENC-modern: Krzysztof Stępień
!!!END-modern: 2022-11-10
